;FLAVOR:Marlin
;TIME:22929
;Filament used:14.4145m
;Layer height: 0.2
;MINX:46.83
;MINY:65.82
;MINZ:0.1
;MAXX:173.211
;MAXY:194.16
;MAXZ:48.7
                                
;Creality Print GCode Generated by CXEngineDEV
;Generated Time:2022-06-30 15:03:09
;----------Machine Config--------------
;Machine Name:Creality Ender-3 Pro
;Machine Height:250
;Machine Width:220
;Machine Depth:220
;Material name:Castable
;Number of Extruders:1
;ExtruderParams[0] Nozzle Diameter1000
;----------Profile Config---------------
;Layer Height:0.2
;Wall Thickness:0.8
;Top/Bottom Thickness:0.6
;Out Wall Line Width:0.4
;Inner Wall Line Width:0.4
;Inital Layer Height:100
;Wall Line Count:2
;Infill Line Distance:4
;Infill Pattern:grid
;Infill Sparse Density:20
;Infill Wipe Distance:0
;Print Temperature:200
;Bed Temperature:60
;Support Enable:false
;Support Density:30
;Support Angle:1.0472
;Adhesion Type:none
;machine is belt:false
;machine belt offset:10
;machine belt offset Y:0
;Raft Base Line Spacing:1.6
;Wait Heatup Sync:true
;----------Shell Config----------------
;Outer Wall Wipe Distance:200
;Infill Before Walls:false
;Infill Overlap:0.16
;Fill Gaps Between Walls:everywhere
;Minimum Infill Area:1
;Top Surface Skin Layer:0
;Top Layers:3
;Z Seam Alignment:sharpest_corner
;Seam Corner Preference:z_seam_corner_inner
;Z Seam X:110
;Z Seam Y:110
;Horizontal Expansion:0
;Top/Bottom Pattern:zigzag
;Ironing Pattern:zigzag
;Vase Model:false
;----------Support Config----------------
;Support Type:everywhere
;Support Pattern:zigzag
;Support Infill Layer Thickness:0.2
;Minimum Support Area:5
;Enable Support Roof:false
;Support Roof Thickness:0.8
;Support Roof Pattern:lines
;Connect Support Lines:0
;Connect Support ZigZags:1
;Minimum Support X/Y Distance:0.2
;Support Line Distance:1.33
; ---------PrintSpeed & Travel----------
;Enable Print Cool:true
;Avoid Printed Parts Traveling:true
;Enable Retraction:true
;Retraction Distance:6
;Retraction Speed:100
;Retraction Prime Speed:100
;Maximum Retraction Count:100
;Minimum Extrusion Distance Window:1
;Z Hop When Retracted:false
;Z Hop Height:0.2
;Retract Before Outer Wall:true
;Print Speed:50
;Infill Speed:50

;Prime Tower Speed:50
;Travel Speed:120
;Initial Layer Speed:25
;Skirt/Brim Speed:25
;Combing Mode:infill
; --------SpecialModel&Mesh Fixes--------
;Union Overlapping Volum:true
;Remove All Holes:false
;Maximum Travel Resolution:0.6
;Maximum Deviation:0.05
;Maximum Model Angle:0.872665
;IS Mold Print:false
;Make Overhang Printable:false
;Enable Coasting:false
;Coasting Volumes:0.06
;Coasting Speed:0.9
;Raft AirGap:0.25
;Layer0 ZOverLap:0.13
;---------------------End of Head--------------------------
M140 S60
M105
M104 S200
M105
M109 S200
M105
M190 S60
M82 ;absolute extrusion mode
M220 S100 ;Reset Feedrate
M221 S100 ;Reset Flowrate

G28 ;Home

G92 E0 ;Reset Extruder
G1 Z2.0 F3000 ;Move Z Axis up
G1 X10.1 Y20 Z0.28 F5000.0 ;Move to start position
G1 X10.1 Y145.0 Z0.28 F1500.0 E15 ;Draw the first line
G1 X10.4 Y145.0 Z0.28 F5000.0 ;Move to side a little
G1 X10.4 Y20 Z0.28 F1500.0 E30 ;Draw the second line
G92 E0  ;Reset Extruder
G1 E-1.0000 F1800 ;Retract a bit
G1 Z2.0 F3000 ;Move Z Axis up
G1 E0.0000 F1800 

G92 E0
G92 E0
G1 F6000 E-6

;LAYER_COUNT:244

;LAYER:0
M107
;MESH:
G0 F3600 X165.766 Y84.99 Z0.1
;TYPE:WALL-INNER
G1 F6000 E0
G1 F1500 X165.88 Y85.719 E0.0135
G1 X166.215 Y86.377 E0.027
G1 X166.738 Y86.899 E0.04052
G1 X167.395 Y87.235 E0.05402
G1 X168.125 Y87.351 E0.06754
G1 X168.855 Y87.235 E0.08106
G1 X169.512 Y86.899 E0.09456
G1 X170.034 Y86.377 E0.10807
G1 X170.37 Y85.72 E0.12157
G1 X170.486 Y84.99 E0.13509
G1 X170.37 Y84.26 E0.14861
G1 X170.034 Y83.603 E0.16211
G1 X169.512 Y83.08 E0.17563
G1 X168.854 Y82.745 E0.18913
G1 X168.125 Y82.631 E0.20263
G1 X167.396 Y82.745 E0.21613
G1 X166.738 Y83.08 E0.22964
G1 X166.215 Y83.603 E0.24317
G1 X165.88 Y84.261 E0.25667
G1 X165.766 Y84.99 E0.27017
G0 F3600 X166.171 Y84.99
;TYPE:WALL-OUTER
G1 F1500 X166.265 Y85.594 E0.28135
G1 X166.543 Y86.139 E0.29254
G1 X166.976 Y86.572 E0.30375
G1 X167.52 Y86.85 E0.31492
G1 X168.125 Y86.946 E0.32613
G1 X168.73 Y86.85 E0.33733
G1 X169.274 Y86.572 E0.34851
G1 X169.707 Y86.139 E0.35971
G1 X169.985 Y85.595 E0.37089
G1 X170.081 Y84.99 E0.38209
G1 X169.985 Y84.385 E0.3933
G1 X169.707 Y83.841 E0.40447
G1 X169.274 Y83.408 E0.41567
G1 X168.729 Y83.13 E0.42687
G1 X168.125 Y83.036 E0.43805
G1 X167.521 Y83.13 E0.44923
G1 X166.976 Y83.408 E0.46042
G1 X166.543 Y83.841 E0.47162
G1 X166.265 Y84.386 E0.48282
G1 X166.171 Y84.99 E0.494
G0 F3600 X166.201 Y85.187
G0 X165.767 Y85.253
;;retract;;
G1 F6000 E-5.506
G0 F3600 X167.103 Y85.323
G0 X167.353 Y120.907
G0 X166.13 Y120.511
;TYPE:WALL-INNER
G1 F6000 E0.494
G1 F1500 X166.016 Y121.24 E0.5075
G1 X166.13 Y121.969 E0.52099
G1 X166.465 Y122.627 E0.5345
G1 X166.988 Y123.149 E0.54802
G1 X167.645 Y123.485 E0.56152
G1 X168.375 Y123.601 E0.57504
G1 X169.105 Y123.485 E0.58856
G1 X169.762 Y123.149 E0.60206
G1 X170.284 Y122.627 E0.61556
G1 X170.62 Y121.97 E0.62906
G1 X170.736 Y121.24 E0.64258
G1 X170.62 Y120.51 E0.65611
G1 X170.284 Y119.853 E0.6696
G1 X169.762 Y119.33 E0.68312
G1 X169.104 Y118.995 E0.69663
G1 X168.375 Y118.881 E0.71013
G1 X167.646 Y118.995 E0.72362
G1 X166.988 Y119.33 E0.73713
G1 X166.465 Y119.853 E0.75066
G1 X166.13 Y120.511 E0.76417
G0 F3600 X166.515 Y120.636
;TYPE:WALL-OUTER
G1 F1500 X166.421 Y121.24 E0.77535
G1 X166.515 Y121.844 E0.78653
G1 X166.793 Y122.389 E0.79772
G1 X167.226 Y122.822 E0.80893
G1 X167.77 Y123.1 E0.8201
G1 X168.375 Y123.196 E0.83131
G1 X168.98 Y123.1 E0.84251
G1 X169.524 Y122.822 E0.85369
G1 X169.957 Y122.389 E0.86489
G1 X170.235 Y121.845 E0.87607
G1 X170.331 Y121.24 E0.88727
G1 X170.235 Y120.635 E0.89848
G1 X169.957 Y120.091 E0.90965
G1 X169.524 Y119.658 E0.92086
G1 X168.979 Y119.38 E0.93205
G1 X168.375 Y119.286 E0.94323
G1 X167.771 Y119.38 E0.95441
G1 X167.226 Y119.658 E0.9656
G1 X166.793 Y120.091 E0.9768
G1 X166.515 Y120.636 E0.988
G0 F3600 X166.485 Y120.833
G0 X166.051 Y120.765
;;retract;;
G1 F6000 E-5.012
G0 F3600 X167.343 Y120.97
G0 X51.75 Y120.165
G0 X51.75 Y118.881
;TYPE:WALL-INNER
G1 F6000 E0.988
G1 F1500 X51.021 Y118.995 E1.00149
G1 X50.363 Y119.33 E1.015
G1 X49.841 Y119.853 E1.02852
G1 X49.505 Y120.51 E1.04202
G1 X49.389 Y121.24 E1.05554
G1 X49.505 Y121.97 E1.06906
G1 X49.841 Y122.627 E1.08256
G1 X50.363 Y123.149 E1.09606
G1 X51.02 Y123.485 E1.10956
G1 X51.75 Y123.601 E1.12308
G1 X52.48 Y123.485 E1.13661
G1 X53.137 Y123.149 E1.15011
G1 X53.66 Y122.627 E1.16362
G1 X53.995 Y121.969 E1.17713
G1 X54.109 Y121.24 E1.19063
G1 X53.995 Y120.511 E1.20413
G1 X53.66 Y119.853 E1.21763
G1 X53.137 Y119.33 E1.23116
G1 X52.479 Y118.995 E1.24467
G1 X51.75 Y118.881 E1.25817
G0 F3600 X51.75 Y119.286
;TYPE:WALL-OUTER
G1 F1500 X51.146 Y119.38 E1.26935
G1 X50.601 Y119.658 E1.28054
G1 X50.168 Y120.091 E1.29174
G1 X49.89 Y120.635 E1.30292
G1 X49.794 Y121.24 E1.31412
G1 X49.89 Y121.845 E1.32533
G1 X50.168 Y122.389 E1.33651
G1 X50.601 Y122.822 E1.34771
G1 X51.145 Y123.1 E1.35888
G1 X51.75 Y123.196 E1.37009
G1 X52.355 Y123.1 E1.38129
G1 X52.899 Y122.822 E1.39247
G1 X53.332 Y122.389 E1.40367
G1 X53.61 Y121.844 E1.41486
G1 X53.704 Y121.24 E1.42605
G1 X53.61 Y120.636 E1.43723
G1 X53.332 Y120.091 E1.44842
G1 X52.899 Y119.658 E1.45962
G1 X52.354 Y119.38 E1.47081
G1 X51.75 Y119.286 E1.482
G0 F3600 X51.553 Y119.316
G0 X51.487 Y118.882
;;retract;;
G1 F6000 E-4.518
G0 F3600 X51.75 Y120.165
G0 X50.867 Y84.12
G0 X50.113 Y83.08
;TYPE:WALL-INNER
G1 F6000 E1.482
G1 F1500 X49.591 Y83.603 E1.49551
G1 X49.255 Y84.26 E1.50901
G1 X49.139 Y84.99 E1.52253
G1 X49.255 Y85.72 E1.53605
G1 X49.591 Y86.377 E1.54955
G1 X50.113 Y86.899 E1.56306
G1 X50.77 Y87.235 E1.57656
G1 X51.5 Y87.351 E1.59008
G1 X52.23 Y87.235 E1.6036
G1 X52.887 Y86.899 E1.6171
G1 X53.41 Y86.377 E1.63062
G1 X53.745 Y85.719 E1.64412
G1 X53.859 Y84.99 E1.65762
G1 X53.745 Y84.261 E1.67112
G1 X53.41 Y83.603 E1.68463
G1 X52.887 Y83.08 E1.69816
G1 X52.229 Y82.745 E1.71166
G1 X51.5 Y82.631 E1.72516
G1 X50.771 Y82.745 E1.73866
G1 X50.113 Y83.08 E1.75217
G0 F3600 X50.351 Y83.408
;TYPE:WALL-OUTER
G1 F1500 X49.918 Y83.841 E1.76337
G1 X49.64 Y84.385 E1.77454
G1 X49.544 Y84.99 E1.78575
G1 X49.64 Y85.595 E1.79695
G1 X49.918 Y86.139 E1.80813
G1 X50.351 Y86.572 E1.81933
G1 X50.895 Y86.85 E1.83051
G1 X51.5 Y86.946 E1.84171
G1 X52.105 Y86.85 E1.85292
G1 X52.649 Y86.572 E1.86409
G1 X53.082 Y86.139 E1.8753
G1 X53.36 Y85.594 E1.88649
G1 X53.454 Y84.99 E1.89767
G1 X53.36 Y84.386 E1.90885
G1 X53.082 Y83.841 E1.92004
G1 X52.649 Y83.408 E1.93125
G1 X52.104 Y83.13 E1.94244
G1 X51.5 Y83.036 E1.95362
G1 X50.896 Y83.13 E1.9648
G1 X50.351 Y83.408 E1.97599
G0 F3600 X50.21 Y83.549
G0 X49.9 Y83.237
G0 X48.1 Y81.14
;TYPE:WALL-INNER
G1 F1500 X171.9 Y81.14 E4.24068
G1 X171.9 Y127.89 E5.09588
G1 X48.1 Y127.89 E7.36056
G1 X48.1 Y81.14 E8.21576
G0 F3600 X47.7 Y80.74
;TYPE:WALL-OUTER
G1 F1500 X172.3 Y80.74 E10.49508
G1 X172.3 Y128.29 E11.36491
G1 X47.7 Y128.29 E13.64423
G1 X47.7 Y80.74 E14.51407
G0 F3600 X47.9 Y80.74
G0 X48.14 Y81.18
;;retract;;
G1 F6000 E8.51407
G0 F3600 X46.83 Y81.18
G0 X46.83 Y127.649
G0 X48.339 Y127.649
;TYPE:SKIN
G1 F6000 E14.51407
G1 F1500 X48.453 Y127.649 E14.51615
G1 X48.339 Y127.535 E14.5191
G1 X48.339 Y126.97 E14.52944
G1 X49.018 Y127.649 E14.547
G1 X49.584 Y127.649 E14.55736
G1 X48.339 Y126.404 E14.58957
G1 X48.339 Y125.838 E14.59992
G1 X50.15 Y127.649 E14.64677
G1 X50.715 Y127.649 E14.65711
G1 X48.339 Y125.273 E14.71857
G1 X48.339 Y124.707 E14.72893
G1 X51.281 Y127.649 E14.80504
G1 X51.847 Y127.649 E14.81539
G1 X48.339 Y124.141 E14.90615
G1 X48.339 Y123.576 E14.91648
G1 X52.412 Y127.649 E15.02185
G1 X52.978 Y127.649 E15.0322
G1 X48.339 Y123.01 E15.15222
G1 X48.339 Y122.444 E15.16257
G1 X53.544 Y127.649 E15.29723
G1 X54.109 Y127.649 E15.30756
G1 X48.339 Y121.879 E15.45683
G1 X48.339 Y121.313 E15.46719
G1 X49.484 Y122.458 E15.49681
G1 X49.272 Y122.045 E15.5053
G1 X49.204 Y121.612 E15.51332
G1 X48.339 Y120.747 E15.5357
G1 X48.339 Y120.181 E15.54605
G1 X49.179 Y121.022 E15.56779
G1 X49.257 Y120.533 E15.57685
G1 X48.339 Y119.616 E15.60059
G1 X48.339 Y119.05 E15.61094
G1 X49.425 Y120.136 E15.63904
G1 X49.617 Y119.762 E15.64673
G1 X48.339 Y118.484 E15.67979
G1 X48.339 Y117.919 E15.69013
G1 X49.887 Y119.466 E15.73016
G1 X50.169 Y119.183 E15.73747
G1 X48.339 Y117.353 E15.78481
G1 X48.339 Y116.787 E15.79517
G1 X50.527 Y118.975 E15.85177
G1 X50.902 Y118.784 E15.85947
G1 X48.339 Y116.222 E15.92576
G1 X48.339 Y115.656 E15.93611
G1 X51.379 Y118.695 E16.01475
G1 X51.75 Y118.638 E16.02161
G1 X51.912 Y118.663 E16.02461
G1 X48.339 Y115.09 E16.11705
G1 X48.339 Y114.525 E16.12738
G1 X52.601 Y118.786 E16.23763
G0 F3600 X53.279 Y119.132
G1 F1500 X53.856 Y119.709 E16.25256
G1 X54.201 Y120.387 E16.26647
G1 X54.227 Y120.436 E16.26749
G1 X54.325 Y121.076 E16.27933
G1 X60.898 Y127.649 E16.44938
G1 X60.332 Y127.649 E16.45973
G1 X54.293 Y121.609 E16.61597
G1 X54.226 Y122.042 E16.62399
G1 X54.203 Y122.086 E16.6249
G1 X59.766 Y127.649 E16.76881
G1 X59.201 Y127.649 E16.77915
G1 X54.013 Y122.46 E16.91338
G1 X53.857 Y122.769 E16.91971
G1 X53.806 Y122.82 E16.92103
G1 X58.635 Y127.649 E17.04596
G1 X58.069 Y127.649 E17.05631
G1 X53.523 Y123.103 E17.17392
G1 X53.279 Y123.345 E17.1802
G1 X53.227 Y123.372 E17.18128
G1 X57.504 Y127.649 E17.29192
G1 X56.938 Y127.649 E17.30228
G1 X52.853 Y123.564 E17.40796
G1 X52.555 Y123.716 E17.41408
G1 X52.456 Y123.732 E17.41591
G1 X56.372 Y127.649 E17.51723
G1 X55.806 Y127.649 E17.52759
G1 X51.968 Y123.81 E17.62689
G1 X51.75 Y123.844 E17.63093
G1 X51.377 Y123.785 E17.63783
G1 X55.241 Y127.649 E17.7378
G1 X54.675 Y127.649 E17.74815
G1 X50.531 Y123.504 E17.85537
G0 F3600 X50.22 Y123.344
G1 F1500 X49.644 Y122.769 E17.87026
G1 X49.484 Y122.458 E17.87666
;;retract;;
G1 F6000 E11.87666
G0 F3600 X50.828 Y121.77
G0 X52.772 Y120.907
G0 X54.201 Y120.387
G1 F6000 E17.87666
G1 F1500 X61.463 Y127.649 E18.06453
G1 X62.029 Y127.649 E18.07488
G1 X48.339 Y113.959 E18.42904
G1 X48.339 Y113.393 E18.4394
G1 X62.595 Y127.649 E18.80821
G1 X63.16 Y127.649 E18.81854
G1 X48.339 Y112.828 E19.20197
G1 X48.339 Y112.262 E19.21232
G1 X63.726 Y127.649 E19.61039
G1 X64.292 Y127.649 E19.62074
G1 X48.339 Y111.696 E20.03345
G1 X48.339 Y111.131 E20.04378
G1 X64.857 Y127.649 E20.47111
G1 X65.423 Y127.649 E20.48146
G1 X48.339 Y110.565 E20.92343
G1 X48.339 Y109.999 E20.93379
G1 X65.989 Y127.649 E21.3904
G1 X66.555 Y127.649 E21.40075
G1 X48.339 Y109.433 E21.872
G1 X48.339 Y108.868 E21.88234
G1 X67.12 Y127.649 E22.36821
G1 X67.686 Y127.649 E22.37856
G1 X48.339 Y108.302 E22.87908
G1 X48.339 Y107.736 E22.88943
G1 X68.252 Y127.649 E23.40459
G1 X68.817 Y127.649 E23.41492
G1 X48.339 Y107.171 E23.9447
G1 X48.339 Y106.605 E23.95505
G1 X69.383 Y127.649 E24.49946
G1 X69.949 Y127.649 E24.50982
G1 X48.339 Y106.039 E25.06888
G1 X48.339 Y105.474 E25.07921
G1 X70.514 Y127.649 E25.65288
G1 X71.08 Y127.649 E25.66324
G1 X48.339 Y104.908 E26.25156
G1 X48.339 Y104.342 E26.26191
G1 X71.646 Y127.649 E26.86487
G1 X72.211 Y127.649 E26.8752
G1 X48.339 Y103.777 E27.49278
G1 X48.339 Y103.211 E27.50313
G1 X72.777 Y127.649 E28.13535
G1 X73.343 Y127.649 E28.14571
G1 X48.339 Y102.645 E28.79257
G1 X48.339 Y102.08 E28.8029
G1 X73.908 Y127.649 E29.46438
G1 X74.474 Y127.649 E29.47474
G1 X48.339 Y101.514 E30.15086
G1 X48.339 Y100.948 E30.16121
G1 X75.04 Y127.649 E30.85197
G1 X75.605 Y127.649 E30.86231
G1 X48.339 Y100.382 E31.5677
G1 X48.339 Y99.817 E31.57804
G1 X76.171 Y127.649 E32.29806
G1 X76.737 Y127.649 E32.30841
G1 X48.339 Y99.251 E33.04308
G1 X48.339 Y98.685 E33.05343
G1 X77.303 Y127.649 E33.80274
G1 X77.868 Y127.649 E33.81308
G1 X48.339 Y98.12 E34.577
G1 X48.339 Y97.554 E34.58736
G1 X78.434 Y127.649 E35.36592
G1 X79 Y127.649 E35.37628
G1 X48.339 Y96.988 E36.16949
G1 X48.339 Y96.423 E36.17982
G1 X79.565 Y127.649 E36.98765
G1 X80.131 Y127.649 E36.998
G1 X48.339 Y95.857 E37.82047
G1 X48.339 Y95.291 E37.83082
G1 X80.697 Y127.649 E38.66794
G1 X81.262 Y127.649 E38.67827
G1 X48.339 Y94.726 E39.53
G1 X48.339 Y94.16 E39.54035
G1 X81.828 Y127.649 E40.40672
G1 X82.394 Y127.649 E40.41708
G1 X48.339 Y93.594 E41.29809
G1 X48.339 Y93.029 E41.30843
G1 X82.959 Y127.649 E42.20406
G1 X83.525 Y127.649 E42.21441
G1 X48.339 Y92.463 E43.12468
G1 X48.339 Y91.897 E43.13504
G1 X84.091 Y127.649 E44.05995
G1 X84.656 Y127.649 E44.07029
G1 X48.339 Y91.332 E45.00982
G1 X48.339 Y90.766 E45.02018
G1 X85.222 Y127.649 E45.97435
G1 X85.788 Y127.649 E45.9847
G1 X48.339 Y90.2 E46.95352
G1 X48.339 Y89.634 E46.96388
G1 X86.354 Y127.649 E47.94734
G1 X86.919 Y127.649 E47.95767
G1 X48.339 Y89.069 E48.95575
G1 X48.339 Y88.503 E48.9661
G1 X87.485 Y127.649 E49.97882
G1 X88.051 Y127.649 E49.98918
G1 X48.339 Y87.937 E51.01654
G1 X48.339 Y87.372 E51.02687
G1 X88.616 Y127.649 E52.06885
G1 X89.182 Y127.649 E52.07921
G1 X48.339 Y86.806 E53.13583
G1 X48.339 Y86.24 E53.14618
G1 X89.748 Y127.649 E54.21744
G1 X90.313 Y127.649 E54.22778
G1 X48.339 Y85.675 E55.31366
G1 X48.339 Y85.109 E55.32401
G1 X49.023 Y85.792 E55.3417
G1 X48.915 Y85.119 E55.35417
G1 X48.339 Y84.543 E55.36907
G1 X48.339 Y83.978 E55.3794
G1 X48.957 Y84.595 E55.39538
G1 X49.023 Y84.183 E55.40301
G1 X49.052 Y84.125 E55.4042
G1 X48.339 Y83.412 E55.42264
G1 X48.339 Y82.846 E55.433
G1 X49.244 Y83.751 E55.45641
G1 X49.393 Y83.459 E55.4624
G1 X49.455 Y83.396 E55.46402
G1 X48.339 Y82.281 E55.49288
G1 X48.339 Y81.715 E55.50323
G1 X49.738 Y83.114 E55.53943
G1 X49.969 Y82.882 E55.54542
G1 X50.037 Y82.847 E55.54681
G1 X48.569 Y81.379 E55.58479
G1 X49.135 Y81.379 E55.59515
G1 X50.412 Y82.656 E55.62818
G1 X50.696 Y82.512 E55.63401
G1 X50.814 Y82.493 E55.63619
G1 X49.701 Y81.379 E55.665
G1 X50.266 Y81.379 E55.67534
G1 X51.304 Y82.417 E55.70219
G1 X51.5 Y82.387 E55.70582
G1 X51.903 Y82.45 E55.71328
G1 X50.832 Y81.379 E55.74099
G1 X51.398 Y81.379 E55.75134
G1 X52.767 Y82.748 E55.78676
G0 F3600 X53.03 Y82.882
G1 F1500 X53.607 Y83.459 E55.80168
G1 X53.74 Y83.721 E55.80706
G1 X53.976 Y84.186 E55.8166
G1 X54.038 Y84.585 E55.82398
G1 X97.102 Y127.649 E56.93806
G1 X96.536 Y127.649 E56.94842
G1 X54.071 Y85.183 E58.04701
G1 X53.995 Y85.673 E58.05608
G1 X95.97 Y127.649 E59.142
