;FLAVOR:Marlin
;TIME:18105
;Filament used:8.32688m
;Layer height: 0.12
;MINX:88.72
;MINY:57.775
;MINZ:0.15
;MAXX:131.28
;MAXY:162.225
;MAXZ:58.95
                             
;Creality Print GCode Generated by CXEngineDEV
;Generated Time:2022-06-30 15:03:09
;----------Machine Config--------------
;Machine Name:Creality Ender-3 Pro
;Machine Height:250
;Machine Width:220
;Machine Depth:220
;Material name:Castable
;Number of Extruders:1
;ExtruderParams[0] Nozzle Diameter1000
;----------Profile Config---------------
;Layer Height:0.12
;Wall Thickness:0.8
;Top/Bottom Thickness:1
;Out Wall Line Width:0.4
;Inner Wall Line Width:0.4
;Inital Layer Height:150
;Wall Line Count:2
;Infill Line Distance:4
;Infill Pattern:grid
;Infill Sparse Density:20
;Infill Wipe Distance:0
;Print Temperature:200
;Bed Temperature:60
;Support Enable:false
;Support Density:30
;Support Angle:1.0472
;Adhesion Type:skirt
;machine is belt:false
;machine belt offset:10
;machine belt offset Y:0
;Raft Base Line Spacing:1.6
;Wait Heatup Sync:true
;----------Shell Config----------------
;Outer Wall Wipe Distance:200
;Infill Before Walls:false
;Infill Overlap:0.16
;Fill Gaps Between Walls:everywhere
;Minimum Infill Area:1
;Top Surface Skin Layer:0
;Top Layers:5
;Z Seam Alignment:sharpest_corner
;Seam Corner Preference:z_seam_corner_inner
;Z Seam X:110
;Z Seam Y:110
;Horizontal Expansion:0
;Top/Bottom Pattern:zigzag
;Ironing Pattern:zigzag
;Vase Model:false
;----------Support Config----------------
;Support Type:everywhere
;Support Pattern:zigzag
;Support Infill Layer Thickness:0.12
;Minimum Support Area:5
;Enable Support Roof:false
;Support Roof Thickness:0.8
;Support Roof Pattern:lines
;Connect Support Lines:0
;Connect Support ZigZags:1
;Minimum Support X/Y Distance:0.2
;Support Line Distance:1.33
; ---------PrintSpeed & Travel----------
;Enable Print Cool:true
;Avoid Printed Parts Traveling:true
;Enable Retraction:true
;Retraction Distance:6
;Retraction Speed:25
;Retraction Prime Speed:25
;Maximum Retraction Count:100
;Minimum Extrusion Distance Window:1
;Z Hop When Retracted:false
;Z Hop Height:0.2
;Retract Before Outer Wall:true
;Print Speed:50
;Infill Speed:50

;Prime Tower Speed:50
;Travel Speed:120
;Initial Layer Speed:20
;Skirt/Brim Speed:20
;Combing Mode:off
; --------SpecialModel&Mesh Fixes--------
;Union Overlapping Volum:true
;Remove All Holes:false
;Maximum Travel Resolution:0.6
;Maximum Deviation:0.05
;Maximum Model Angle:0.872665
;IS Mold Print:false
;Make Overhang Printable:false
;Enable Coasting:false
;Coasting Volumes:0.06
;Coasting Speed:0.9
;Raft AirGap:0.25
;Layer0 ZOverLap:0.13
;---------------------End of Head--------------------------
M140 S60
M105
M104 S200
M105
M109 S200
M105
M190 S60
M82 ;absolute extrusion mode
M220 S100 ;Reset Feedrate
M221 S100 ;Reset Flowrate

G28 ;Home

G92 E0 ;Reset Extruder
G1 Z2.0 F3000 ;Move Z Axis up
G1 X10.1 Y20 Z0.28 F5000.0 ;Move to start position
G1 X10.1 Y145.0 Z0.28 F1500.0 E15 ;Draw the first line
G1 X10.4 Y145.0 Z0.28 F5000.0 ;Move to side a little
G1 X10.4 Y20 Z0.28 F1500.0 E30 ;Draw the second line
G92 E0  ;Reset Extruder
G1 E-1.0000 F1800 ;Retract a bit
G1 Z2.0 F3000 ;Move Z Axis up
G1 E0.0000 F1800 

G92 E0
G92 E0
G1 F1500 E-6

;LAYER_COUNT:491

;LAYER:0
M107
G0 F2880 X91.12 Y75.408 Z0.15
;;retract;;
G0 X127.744 Y74.76
;TYPE:SKIRT
G1 F1500 E0
G1 F1200 X128.193 Y75.206 E0.01737
G1 X128.523 Y75.589 E0.03124
G1 X128.787 Y76.018 E0.04506
G1 X129.072 Y76.575 E0.06223
G1 X129.266 Y77.042 E0.0761
G1 X129.382 Y77.52 E0.0896
G1 X129.468 Y78.05 E0.10433
G1 X129.507 Y78.457 E0.11555
G1 X129.52 Y78.896 E0.1276
G1 X129.52 Y140.753 E1.82494
G1 X129.509 Y141.487 E1.84508
G1 X129.483 Y141.843 E1.85487
G1 X129.441 Y142.153 E1.86346
G1 X129.378 Y142.515 E1.87354
G1 X129.252 Y143.004 E1.8874
G1 X129.079 Y143.413 E1.89958
G1 X128.797 Y143.969 E1.91669
G1 X128.533 Y144.401 E1.93058
G1 X128.208 Y144.782 E1.94432
G1 X127.772 Y145.219 E1.96126
G1 X127.388 Y145.548 E1.97514
G1 X126.979 Y145.8 E1.98832
G1 X126.423 Y146.088 E2.0055
G1 X125.957 Y146.285 E2.01938
G1 X125.466 Y146.405 E2.03325
G1 X124.926 Y146.493 E2.04826
G1 X124.49 Y146.534 E2.06028
G1 X124.005 Y146.545 E2.07359
G1 X96.222 Y146.542 E2.83595
G1 X95.511 Y146.53 E2.85546
G1 X95.163 Y146.505 E2.86503
G1 X94.853 Y146.462 E2.87362
G1 X94.524 Y146.405 E2.88278
G1 X94.034 Y146.28 E2.89666
G1 X93.629 Y146.109 E2.90872
G1 X93.072 Y145.828 E2.92584
G1 X92.64 Y145.565 E2.93972
G1 X92.258 Y145.241 E2.95346
G1 X91.816 Y144.802 E2.97056
G1 X91.487 Y144.419 E2.98441
G1 X91.225 Y143.996 E2.99806
G1 X90.937 Y143.436 E3.01534
G1 X90.742 Y142.969 E3.02923
G1 X90.624 Y142.48 E3.04303
G1 X90.531 Y141.902 E3.0591
G1 X90.491 Y141.473 E3.07092
G1 X90.48 Y140.991 E3.08415
G1 X90.48 Y79.244 E4.77846
G1 X90.492 Y78.54 E4.79778
G1 X90.517 Y78.198 E4.80719
G1 X90.56 Y77.881 E4.81597
G1 X90.626 Y77.5 E4.82658
G1 X90.751 Y77.01 E4.84046
G1 X90.92 Y76.609 E4.8524
G1 X91.202 Y76.048 E4.86963
G1 X91.464 Y75.615 E4.88351
G1 X91.791 Y75.23 E4.89737
G1 X92.23 Y74.788 E4.91447
G1 X92.613 Y74.459 E4.92832
G1 X93.034 Y74.198 E4.94191
G1 X93.593 Y73.91 E4.95917
G1 X94.06 Y73.715 E4.97306
G1 X94.549 Y73.596 E4.98687
G1 X95.107 Y73.506 E5.00237
G1 X95.537 Y73.466 E5.01422
G1 X96.019 Y73.455 E5.02745
G1 X123.758 Y73.458 E5.7886
G1 X124.469 Y73.47 E5.80811
G1 X124.819 Y73.496 E5.81774
G1 X125.133 Y73.539 E5.82644
G1 X125.48 Y73.599 E5.8361
G1 X125.97 Y73.724 E5.84998
G1 X126.37 Y73.892 E5.86188
G1 X126.924 Y74.17 E5.87889
G1 X127.357 Y74.432 E5.89278
G1 X127.744 Y74.76 E5.9067
G0 F2880 X128.026 Y74.476
G1 F1200 X128.475 Y74.922 E5.92406
G1 X128.826 Y75.327 E5.93877
G1 X129.143 Y75.836 E5.95522
G1 X129.428 Y76.393 E5.97239
G1 X129.636 Y76.887 E5.9871
G1 X129.777 Y77.456 E6.00319
G1 X129.863 Y77.986 E6.01792
G1 X129.907 Y78.444 E6.03054
G1 X129.92 Y78.896 E6.04295
G1 X129.92 Y140.759 E7.74045
G1 X129.909 Y141.493 E7.76059
G1 X129.88 Y141.894 E7.77162
G1 X129.835 Y142.221 E7.78068
G1 X129.772 Y142.583 E7.79076
G1 X129.641 Y143.103 E7.80548
G1 X129.436 Y143.594 E7.82008
G1 X129.154 Y144.15 E7.83718
G1 X128.876 Y144.609 E7.85191
G1 X128.491 Y145.065 E7.86829
G1 X128.055 Y145.502 E7.88522
G1 X127.649 Y145.852 E7.89993
G1 X127.163 Y146.156 E7.91566
G1 X126.607 Y146.444 E7.93284
G1 X126.114 Y146.654 E7.94755
G1 X125.53 Y146.8 E7.96407
G1 X124.99 Y146.888 E7.97908
G1 X124.5 Y146.934 E7.99258
G1 X124.005 Y146.945 E8.00617
G1 X96.215 Y146.941 E8.76872
G1 X95.504 Y146.929 E8.78823
G1 X95.113 Y146.902 E8.79898
G1 X94.784 Y146.856 E8.8081
G1 X94.455 Y146.799 E8.81726
G1 X93.935 Y146.669 E8.83197
G1 X93.449 Y146.466 E8.84642
G1 X92.892 Y146.185 E8.86354
G1 X92.432 Y145.909 E8.87826
G1 X91.976 Y145.525 E8.89462
G1 X91.534 Y145.086 E8.91171
G1 X91.183 Y144.681 E8.92642
G1 X90.87 Y144.178 E8.94267
G1 X90.582 Y143.618 E8.95995
G1 X90.372 Y143.125 E8.97466
G1 X90.229 Y142.544 E8.99107
G1 X90.136 Y141.966 E9.00714
G1 X90.091 Y141.483 E9.02045
G1 X90.08 Y140.991 E9.03395
G1 X90.081 Y79.238 E10.72843
G1 X90.093 Y78.534 E10.74775
G1 X90.12 Y78.148 E10.75837
G1 X90.166 Y77.813 E10.76765
G1 X90.232 Y77.432 E10.77826
G1 X90.362 Y76.911 E10.79299
G1 X90.563 Y76.429 E10.80732
G1 X90.845 Y75.868 E10.82455
G1 X91.12 Y75.408 E10.83926
G1 X91.507 Y74.948 E10.85575
G1 X91.946 Y74.506 E10.87285
G1 X92.351 Y74.155 E10.88755
G1 X92.851 Y73.843 E10.90372
G1 X93.41 Y73.555 E10.92098
G1 X93.904 Y73.345 E10.93571
G1 X94.486 Y73.201 E10.95216
G1 X95.044 Y73.111 E10.96767
G1 X95.527 Y73.066 E10.98098
G1 X96.019 Y73.055 E10.99448
G1 X123.765 Y73.059 E11.75582
G1 X124.476 Y73.071 E11.77533
G1 X124.869 Y73.099 E11.78614
G1 X125.201 Y73.145 E11.79534
G1 X125.548 Y73.205 E11.805
G1 X126.069 Y73.335 E11.81974
G1 X126.55 Y73.534 E11.83402
G1 X127.104 Y73.812 E11.85103
G1 X127.564 Y74.088 E11.86575
G1 X128.026 Y74.476 E11.8823
;;retract;;
G1 F1500 E5.8823
;MESH:
G0 F2880 X120.959 Y100.739
;TYPE:WALL-INNER
G1 F1500 E11.8823
G1 F1200 X99.072 Y100.739 E12.48288
G1 X99.072 Y118.704 E12.97583
G1 X99.605 Y122.078 E13.06956
G1 X101.16 Y125.13 E13.16355
G1 X103.595 Y127.56 E13.25794
G1 X106.634 Y129.108 E13.35153
G1 X110.03 Y129.641 E13.44585
G1 X113.397 Y129.108 E13.53939
G1 X116.448 Y127.553 E13.63336
G1 X118.87 Y125.13 E13.72736
G1 X120.425 Y122.078 E13.82135
G1 X120.959 Y118.704 E13.91508
G1 X120.959 Y100.739 E14.40804
G0 F2880 X120.559 Y101.139
;TYPE:WALL-OUTER
G1 F1200 X99.472 Y101.139 E14.98666
G1 X99.472 Y118.673 E15.46778
G1 X99.99 Y121.953 E15.5589
G1 X101.488 Y124.892 E15.64942
G1 X103.833 Y127.232 E15.74032
G1 X106.759 Y128.723 E15.83043
G1 X110.03 Y129.236 E15.92128
G1 X113.272 Y128.723 E16.01135
G1 X116.21 Y127.225 E16.10184
G1 X118.542 Y124.892 E16.19235
G1 X120.04 Y121.953 E16.28287
G1 X120.559 Y118.673 E16.37399
G1 X120.559 Y101.139 E16.85512
G0 F2880 X120.359 Y101.139
G0 X120.359 Y100.699
;;retract;;
G1 F1500 E10.85512
G0 F2880 X125.147 Y77.518
;TYPE:WALL-INNER
G1 F1500 E16.85512
G1 F1200 X125.457 Y77.829 E16.86717
G1 X125.656 Y78.219 E16.87918
G1 X125.72 Y78.623 E16.8904
G1 X125.72 Y141.381 E18.61246
G1 X125.656 Y141.785 E18.62368
G1 X125.457 Y142.175 E18.6357
G1 X125.147 Y142.486 E18.64775
G1 X124.761 Y142.683 E18.65964
G1 X124.365 Y142.745 E18.67064
G1 X95.622 Y142.742 E19.45933
G1 X95.247 Y142.683 E19.46975
G1 X94.857 Y142.484 E19.48176
G1 X94.548 Y142.175 E19.49375
G1 X94.349 Y141.785 E19.50577
G1 X94.28 Y141.347 E19.51793
G1 X94.28 Y78.658 E21.2381
G1 X94.349 Y78.219 E21.25029
G1 X94.548 Y77.829 E21.2623
G1 X94.857 Y77.52 E21.2743
G1 X95.247 Y77.321 E21.28631
G1 X95.666 Y77.255 E21.29795
G1 X124.358 Y77.258 E22.08525
G1 X124.761 Y77.321 E22.09644
G1 X125.147 Y77.518 E22.10833
G0 F2880 X125.385 Y77.191
;TYPE:WALL-OUTER
G1 F1200 X125.785 Y77.592 E22.12387
G1 X126.041 Y78.094 E22.13933
G1 X126.12 Y78.591 E22.15314
G1 X126.12 Y141.413 E23.87695
G1 X126.041 Y141.91 E23.89076
G1 X125.785 Y142.412 E23.90622
G1 X125.385 Y142.813 E23.92177
G1 X124.884 Y143.068 E23.93719
G1 X124.395 Y143.145 E23.95077
G1 X95.592 Y143.142 E24.74112
G1 X95.122 Y143.068 E24.75417
G1 X94.618 Y142.811 E24.7697
G1 X94.221 Y142.414 E24.7851
G1 X93.964 Y141.91 E24.80063
G1 X93.88 Y141.377 E24.81543
G1 X93.88 Y78.628 E26.53724
G1 X93.964 Y78.094 E26.55207
G1 X94.221 Y77.59 E26.5676
G1 X94.618 Y77.193 E26.583
G1 X95.122 Y76.936 E26.59853
G1 X95.636 Y76.855 E26.61281
G1 X124.388 Y76.858 E27.40175
G1 X124.884 Y76.936 E27.41553
G1 X125.385 Y77.191 E27.43095
G0 F2880 X125.526 Y77.332
G0 X125.214 Y77.641
G0 X125.423 Y78.291
;TYPE:SKIN
G1 F1200 X125.259 Y77.969 E27.44087
G1 X125.004 Y77.714 E27.45076
G1 X124.686 Y77.552 E27.46056
G1 X124.471 Y77.519 E27.46652
G1 X124.333 Y77.497 E27.47036
G1 X123.883 Y77.497 E27.48271
G1 X125.479 Y79.093 E27.54464
G1 X125.479 Y79.659 E27.56017
G1 X123.318 Y77.497 E27.64405
G1 X122.752 Y77.497 E27.65958
G1 X125.479 Y80.224 E27.7654
G1 X125.479 Y80.79 E27.78093
G1 X122.186 Y77.497 E27.90872
G1 X121.62 Y77.497 E27.92425
G1 X125.479 Y81.356 E28.074
G1 X125.479 Y81.921 E28.0895
G1 X121.055 Y77.497 E28.26118
G1 X120.489 Y77.497 E28.27671
G1 X125.479 Y82.487 E28.47035
G1 X125.479 Y83.053 E28.48588
G1 X119.923 Y77.497 E28.70148
G1 X119.358 Y77.497 E28.71699
G1 X125.479 Y83.618 E28.95451
G1 X125.479 Y84.184 E28.97005
G1 X118.792 Y77.497 E29.22954
G1 X118.226 Y77.497 E29.24507
G1 X125.479 Y84.75 E29.52652
G1 X125.479 Y85.315 E29.54203
G1 X117.661 Y77.497 E29.84541
G1 X117.095 Y77.497 E29.86094
G1 X125.479 Y85.881 E30.18629
G1 X125.479 Y86.447 E30.20182
G1 X116.529 Y77.497 E30.54913
G1 X115.964 Y77.497 E30.56463
G1 X125.479 Y87.013 E30.93388
G1 X125.479 Y87.578 E30.94939
G1 X115.398 Y77.497 E31.34058
G1 X114.832 Y77.497 E31.35611
G1 X125.479 Y88.144 E31.76928
G1 X125.479 Y88.71 E31.78481
G1 X114.266 Y77.496 E32.21995
G1 X113.7 Y77.496 E32.23548
G1 X125.479 Y89.275 E32.69257
G1 X125.479 Y89.841 E32.7081
G1 X113.134 Y77.496 E33.18716
G1 X112.569 Y77.496 E33.20266
G1 X125.479 Y90.407 E33.70366
G1 X125.479 Y90.972 E33.71916
G1 X112.003 Y77.496 E34.2421
G1 X111.437 Y77.496 E34.25763
G1 X125.479 Y91.538 E34.80254
G1 X125.479 Y92.104 E34.81807
G1 X110.872 Y77.496 E35.38492
G1 X110.306 Y77.496 E35.40045
G1 X125.479 Y92.669 E35.98925
G1 X125.479 Y93.235 E36.00478
G1 X109.74 Y77.496 E36.61554
G1 X109.175 Y77.496 E36.63104
G1 X125.479 Y93.801 E37.26375
G1 X125.479 Y94.366 E37.27925
G1 X108.609 Y77.496 E37.9339
G1 X108.043 Y77.496 E37.94943
G1 X125.479 Y94.932 E38.62604
G1 X125.479 Y95.498 E38.64157
G1 X107.478 Y77.496 E39.34013
G1 X106.912 Y77.496 E39.35566
G1 X125.479 Y96.063 E40.07616
G1 X125.479 Y96.629 E40.09169
G1 X106.346 Y77.496 E40.83416
G1 X105.781 Y77.496 E40.84966
G1 X125.479 Y97.195 E41.61407
G1 X125.479 Y97.761 E41.6296
G1 X105.214 Y77.496 E42.41599
G1 X104.648 Y77.496 E42.43152
G1 X125.479 Y98.326 E43.23986
G1 X125.479 Y98.892 E43.25539
G1 X104.083 Y77.496 E44.08567
G1 X103.517 Y77.496 E44.1012
G1 X125.479 Y99.458 E44.95345
G1 X125.479 Y100.023 E44.96895
G1 X102.951 Y77.496 E45.84314
G1 X102.386 Y77.496 E45.85865
G1 X125.479 Y100.589 E46.75478
G1 X125.479 Y101.155 E46.77031
G1 X101.82 Y77.496 E47.68841
G1 X101.254 Y77.496 E47.70394
G1 X125.479 Y101.72 E48.64399
G1 X125.479 Y102.286 E48.65952
G1 X100.689 Y77.496 E49.6215
G1 X100.123 Y77.496 E49.63703
G1 X125.479 Y102.852 E50.62099
G1 X125.479 Y103.417 E50.63649
G1 X99.557 Y77.496 E51.64239
G1 X98.992 Y77.496 E51.65789
G1 X125.479 Y103.983 E52.68573
G1 X125.479 Y104.549 E52.70126
G1 X98.426 Y77.496 E53.75106
G1 X97.86 Y77.496 E53.7666
G1 X120.862 Y100.498 E54.6592
G1 X120.297 Y100.498 E54.6747
G1 X97.295 Y77.496 E55.56731
G1 X96.729 Y77.496 E55.58284
G1 X119.731 Y100.498 E56.47544
G1 X119.165 Y100.498 E56.49097
G1 X96.163 Y77.496 E57.38357
G1 X95.689 Y77.495 E57.39658
G1 X95.61 Y77.508 E57.39878
G1 X118.6 Y100.498 E58.29092
G1 X118.034 Y100.498 E58.30645
G1 X95.167 Y77.631 E59.19381
G1 X94.996 Y77.717 E59.19906
G1 X94.842 Y77.871 E59.20504
G1 X117.468 Y100.498 E60.08307
G1 X116.903 Y100.498 E60.09857
G1 X94.619 Y78.214 E60.96332
G1 X94.58 Y78.291 E60.96568
G1 X94.519 Y78.68 E60.97649
G1 X116.337 Y100.498 E61.82315
G1 X115.771 Y100.498 E61.83868
G1 X94.519 Y79.246 E62.66337
G1 X94.519 Y79.811 E62.67887
G1 X115.206 Y100.498 E63.48164
G1 X114.64 Y100.498 E63.49717
G1 X94.519 Y80.377 E64.27798
G1 X94.519 Y80.943 E64.29351
G1 X114.074 Y100.498 E65.05235
G1 X113.509 Y100.498 E65.06785
G1 X94.519 Y81.508 E65.80477
G1 X94.519 Y82.074 E65.8203
G1 X112.943 Y100.498 E66.53525
G1 X112.377 Y100.498 E66.55078
G1 X94.519 Y82.64 E67.24377
G1 X94.519 Y83.205 E67.25928
G1 X111.811 Y100.498 E67.93032
G1 X111.246 Y100.498 E67.94582
G1 X94.519 Y83.771 E68.59492
G1 X94.519 Y84.337 E68.61045
G1 X110.68 Y100.498 E69.23759
G1 X110.114 Y100.498 E69.25312
G1 X94.519 Y84.903 E69.85829
G1 X94.519 Y85.468 E69.87379
G1 X109.549 Y100.498 E70.45704
G1 X108.983 Y100.498 E70.47257
G1 X94.519 Y86.034 E71.03385
G1 X94.519 Y86.6 E71.04938
G1 X108.417 Y100.498 E71.5887
G1 X107.852 Y100.498 E71.6042
G1 X94.519 Y87.165 E72.1216
G1 X94.519 Y87.731 E72.13713
G1 X107.286 Y100.498 E72.63256
G1 X106.72 Y100.498 E72.64809
G1 X94.519 Y88.297 E73.12155
G1 X94.519 Y88.862 E73.13706
G1 X106.155 Y100.498 E73.5886
G1 X105.589 Y100.498 E73.60413
G1 X94.519 Y89.428 E74.03371
G1 X94.519 Y89.994 E74.04924
G1 X105.023 Y100.498 E74.45685
G1 X104.458 Y100.498 E74.47235
G1 X94.519 Y90.559 E74.85804
G1 X94.519 Y91.125 E74.87357
G1 X103.892 Y100.498 E75.23729
G1 X103.326 Y100.498 E75.25283
G1 X94.519 Y91.691 E75.59459
G1 X94.519 Y92.256 E75.61009
G1 X102.761 Y100.498 E75.92992
G1 X102.195 Y100.498 E75.94545
G1 X94.519 Y92.822 E76.24333
G1 X94.519 Y93.388 E76.25886
G1 X101.629 Y100.498 E76.53476
G1 X101.063 Y100.498 E76.55029
G1 X94.519 Y93.953 E76.80426
G1 X94.519 Y94.519 E76.81979
G1 X100.498 Y100.498 E77.0518
G1 X99.932 Y100.498 E77.06734
G1 X94.519 Y95.085 E77.27739
G1 X94.519 Y95.651 E77.29292
G1 X99.366 Y100.498 E77.48101
G1 X98.832 Y100.498 E77.49566
G1 X98.832 Y100.529 E77.49651
G1 X94.519 Y96.216 E77.66388
G1 X94.519 Y96.782 E77.67941
G1 X98.832 Y101.095 E77.84678
G1 X98.832 Y101.66 E77.86228
G1 X94.519 Y97.348 E78.02963
G1 X94.519 Y97.913 E78.04514
G1 X98.832 Y102.226 E78.2125
G1 X98.832 Y102.792 E78.22803
