;FLAVOR:Marlin
;TIME:18830
;Filament used:7.50973m
;Layer height: 0.12
;MINX:42.135
;MINY:21.3
;MINZ:0.15
;MAXX:177.866
;MAXY:198.7
;MAXZ:13.59
                               
;Creality Print GCode Generated by CXEngineDEV
;Generated Time:2022-06-30 15:03:09
;----------Machine Config--------------
;Machine Name:Creality Ender-3 Pro
;Machine Height:250
;Machine Width:220
;Machine Depth:220
;Material name:Castable
;Number of Extruders:1
;ExtruderParams[0] Nozzle Diameter1000
;----------Profile Config---------------
;Layer Height:0.12
;Wall Thickness:0.8
;Top/Bottom Thickness:1
;Out Wall Line Width:0.4
;Inner Wall Line Width:0.4
;Inital Layer Height:150
;Wall Line Count:2
;Infill Line Distance:4
;Infill Pattern:grid
;Infill Sparse Density:20
;Infill Wipe Distance:0
;Print Temperature:200
;Bed Temperature:60
;Support Enable:false
;Support Density:30
;Support Angle:1.0472
;Adhesion Type:skirt
;machine is belt:false
;machine belt offset:10
;machine belt offset Y:0
;Raft Base Line Spacing:1.6
;Wait Heatup Sync:true
;----------Shell Config----------------
;Outer Wall Wipe Distance:200
;Infill Before Walls:false
;Infill Overlap:0.16
;Fill Gaps Between Walls:everywhere
;Minimum Infill Area:1
;Top Surface Skin Layer:0
;Top Layers:5
;Z Seam Alignment:sharpest_corner
;Seam Corner Preference:z_seam_corner_inner
;Z Seam X:110
;Z Seam Y:110
;Horizontal Expansion:0
;Top/Bottom Pattern:zigzag
;Ironing Pattern:zigzag
;Vase Model:false
;----------Support Config----------------
;Support Type:everywhere
;Support Pattern:zigzag
;Support Infill Layer Thickness:0.12
;Minimum Support Area:5
;Enable Support Roof:false
;Support Roof Thickness:0.8
;Support Roof Pattern:lines
;Connect Support Lines:0
;Connect Support ZigZags:1
;Minimum Support X/Y Distance:0.2
;Support Line Distance:1.33
; ---------PrintSpeed & Travel----------
;Enable Print Cool:true
;Avoid Printed Parts Traveling:true
;Enable Retraction:true
;Retraction Distance:6
;Retraction Speed:25
;Retraction Prime Speed:25
;Maximum Retraction Count:100
;Minimum Extrusion Distance Window:1
;Z Hop When Retracted:false
;Z Hop Height:0.2
;Retract Before Outer Wall:true
;Print Speed:50
;Infill Speed:50

;Prime Tower Speed:50
;Travel Speed:120
;Initial Layer Speed:20
;Skirt/Brim Speed:20
;Combing Mode:off
; --------SpecialModel&Mesh Fixes--------
;Union Overlapping Volum:true
;Remove All Holes:false
;Maximum Travel Resolution:0.6
;Maximum Deviation:0.05
;Maximum Model Angle:0.872665
;IS Mold Print:false
;Make Overhang Printable:false
;Enable Coasting:false
;Coasting Volumes:0.06
;Coasting Speed:0.9
;Raft AirGap:0.25
;Layer0 ZOverLap:0.13
;---------------------End of Head--------------------------
M140 S60
M105
M104 S200
M105
M109 S200
M105
M190 S60
M82 ;absolute extrusion mode
M220 S100 ;Reset Feedrate
M221 S100 ;Reset Flowrate

G28 ;Home

G92 E0 ;Reset Extruder
G1 Z2.0 F3000 ;Move Z Axis up
G1 X10.1 Y20 Z0.28 F5000.0 ;Move to start position
G1 X10.1 Y145.0 Z0.28 F1500.0 E15 ;Draw the first line
G1 X10.4 Y145.0 Z0.28 F5000.0 ;Move to side a little
G1 X10.4 Y20 Z0.28 F1500.0 E30 ;Draw the second line
G92 E0  ;Reset Extruder
G1 E-1.0000 F1800 ;Retract a bit
G1 Z2.0 F3000 ;Move Z Axis up
G1 E0.0000 F1800 

G92 E0
G92 E0
G1 F1500 E-6

;LAYER_COUNT:113

;LAYER:0
M107
G0 F2880 X43.584 Y26.571 Z0.15
;;retract;;
G0 X45.044 Y179.622
;TYPE:SKIRT
G1 F1500 E0
G1 F1200 X45.977 Y177.047 E0.07515
G1 X46.835 Y174.447 E0.15028
G1 X47.636 Y171.773 E0.22687
G1 X48.33 Y169.188 E0.30032
G1 X48.977 Y166.471 E0.37696
G1 X49.524 Y163.854 E0.45032
G1 X50.015 Y161.112 E0.52675
G1 X50.415 Y158.458 E0.6004
G1 X50.755 Y155.663 E0.67766
G1 X51.003 Y152.986 E0.75143
G1 X51.179 Y150.262 E0.82633
G1 X51.278 Y147.516 E0.90173
G1 X51.302 Y145.35 E0.96117
G1 X51.302 Y74.634 E2.90159
G1 X51.262 Y71.837 E2.97834
G1 X51.147 Y69.12 E3.05296
G1 X50.952 Y66.374 E3.1285
G1 X50.684 Y63.668 E3.20312
G1 X50.336 Y60.946 E3.27842
G1 X49.911 Y58.245 E3.35344
G1 X49.411 Y55.556 E3.42849
G1 X48.844 Y52.909 E3.50277
G1 X48.171 Y50.172 E3.58011
G1 X47.461 Y47.592 E3.65354
G1 X46.651 Y44.946 E3.72947
G1 X45.776 Y42.351 E3.80461
G1 X44.84 Y39.815 E3.87879
G1 X43.806 Y37.24 E3.95493
G1 X42.959 Y35.271 E4.01374
G1 X42.701 Y34.632 E4.03265
G1 X42.583 Y34.281 E4.04281
G1 X42.431 Y33.751 E4.05794
G1 X42.351 Y33.406 E4.06766
G1 X42.246 Y32.824 E4.08389
G1 X42.206 Y32.497 E4.09293
G1 X42.158 Y31.891 E4.10961
G1 X42.151 Y31.548 E4.11902
G1 X42.165 Y30.976 E4.13472
G1 X42.193 Y30.633 E4.14417
G1 X42.267 Y30.036 E4.16067
G1 X42.326 Y29.717 E4.16957
G1 X42.466 Y29.109 E4.18669
G1 X42.559 Y28.793 E4.19573
G1 X42.746 Y28.247 E4.21157
G1 X42.885 Y27.903 E4.22175
G1 X43.112 Y27.408 E4.23669
G1 X43.285 Y27.081 E4.24684
G1 X43.584 Y26.571 E4.26307
G1 X43.763 Y26.303 E4.27191
G1 X44.116 Y25.822 E4.28828
G1 X44.341 Y25.549 E4.29799
G1 X44.715 Y25.132 E4.31336
G1 X44.986 Y24.862 E4.32385
G1 X45.411 Y24.479 E4.33955
G1 X45.673 Y24.269 E4.34877
G1 X46.051 Y23.988 E4.36169
G1 X46.575 Y23.671 E4.3785
G1 X47.762 Y23.103 E4.4146
G1 X48.395 Y22.825 E4.43357
G1 X48.841 Y22.667 E4.44656
G1 X49.289 Y22.545 E4.4593
G1 X49.579 Y22.481 E4.46745
G1 X50.103 Y22.39 E4.48204
G1 X56.306 Y21.44 E4.65423
G1 X56.96 Y21.35 E4.67235
G1 X57.333 Y21.321 E4.68261
G1 X58.41 Y21.3 E4.71217
G1 X161.309 Y21.3 E7.53568
G1 X161.994 Y21.31 E7.55448
G1 X162.356 Y21.336 E7.56444
G1 X163.214 Y21.447 E7.58818
G1 X169.719 Y22.392 E7.76854
G1 X170.446 Y22.509 E7.78875
G1 X170.928 Y22.625 E7.80235
G1 X171.524 Y22.82 E7.81956
G1 X172.409 Y23.136 E7.84535
G1 X172.686 Y23.25 E7.85357
G1 X172.984 Y23.389 E7.86259
G1 X173.334 Y23.58 E7.87353
G1 X173.789 Y23.866 E7.88828
G1 X174.125 Y24.101 E7.89953
G1 X174.577 Y24.457 E7.91531
G1 X174.859 Y24.702 E7.92557
G1 X175.256 Y25.086 E7.94072
G1 X175.5 Y25.344 E7.95046
G1 X175.77 Y25.663 E7.96193
G1 X175.903 Y25.834 E7.96788
G1 X176.366 Y26.475 E7.98957
G1 X176.582 Y26.812 E8.00056
G1 X176.872 Y27.344 E8.01718
G1 X177.037 Y27.685 E8.02758
G1 X177.268 Y28.239 E8.04405
G1 X177.363 Y28.505 E8.0518
G1 X177.586 Y29.247 E8.07306
G1 X177.665 Y29.592 E8.08277
G1 X177.77 Y30.17 E8.09889
G1 X177.812 Y30.509 E8.10826
G1 X177.859 Y31.104 E8.12464
G1 X177.866 Y31.447 E8.13405
G1 X177.852 Y32.014 E8.14962
G1 X177.825 Y32.362 E8.15919
G1 X177.753 Y32.948 E8.1754
G1 X177.692 Y33.28 E8.18466
G1 X177.553 Y33.879 E8.20153
G1 X177.461 Y34.196 E8.21059
G1 X177.328 Y34.598 E8.22221
G1 X177.233 Y34.85 E8.2296
G1 X175.974 Y37.798 E8.31756
G1 X174.968 Y40.344 E8.39267
G1 X174.04 Y42.905 E8.46742
G1 X173.18 Y45.504 E8.54254
G1 X172.391 Y48.135 E8.61791
G1 X171.677 Y50.788 E8.69329
G1 X171.038 Y53.461 E8.76871
G1 X170.481 Y56.122 E8.84331
G1 X170 Y58.799 E8.91794
G1 X169.586 Y61.537 E8.99392
G1 X169.257 Y64.229 E9.06834
G1 X169.001 Y66.969 E9.14385
G1 X168.824 Y69.683 E9.21848
G1 X168.723 Y72.436 E9.29407
G1 X168.698 Y74.651 E9.35485
G1 X168.698 Y145.324 E11.29409
G1 X168.738 Y148.121 E11.37085
G1 X168.853 Y150.838 E11.44547
G1 X169.048 Y153.584 E11.52101
G1 X169.316 Y156.288 E11.59557
G1 X169.664 Y159.012 E11.67092
G1 X170.089 Y161.712 E11.74592
G1 X170.589 Y164.402 E11.821
G1 X171.156 Y167.049 E11.89528
G1 X171.826 Y169.773 E11.97225
G1 X172.539 Y172.364 E12.04599
G1 X173.349 Y175.011 E12.12195
G1 X174.224 Y177.606 E12.19709
G1 X175.16 Y180.143 E12.27129
G1 X176.196 Y182.722 E12.34756
G1 X177.166 Y184.989 E12.41522
G1 X177.257 Y185.228 E12.42224
G1 X177.508 Y185.974 E12.44383
G1 X177.59 Y186.262 E12.45205
G1 X177.66 Y186.568 E12.46066
G1 X177.77 Y187.165 E12.47732
G1 X177.811 Y187.491 E12.48634
G1 X177.858 Y188.087 E12.50274
G1 X177.866 Y188.421 E12.51191
G1 X177.853 Y189.011 E12.5281
G1 X177.825 Y189.367 E12.5379
G1 X177.753 Y189.945 E12.55388
G1 X177.693 Y190.274 E12.56306
G1 X177.593 Y190.722 E12.57566
G1 X177.521 Y190.989 E12.58324
G1 X177.275 Y191.746 E12.60508
G1 X177.141 Y192.076 E12.61486
G1 X176.907 Y192.59 E12.63035
G1 X176.748 Y192.893 E12.63974
G1 X176.444 Y193.413 E12.65627
G1 X176.27 Y193.674 E12.66488
G1 X175.947 Y194.109 E12.67975
G1 X175.465 Y194.689 E12.70044
G1 X175.175 Y195 E12.71211
G1 X174.744 Y195.401 E12.72826
G1 X174.329 Y195.744 E12.74303
G1 X173.871 Y196.081 E12.75864
G1 X173.559 Y196.283 E12.76884
G1 X173.17 Y196.514 E12.78125
G1 X172.649 Y196.763 E12.7971
G1 X171.474 Y197.196 E12.83146
G1 X170.863 Y197.396 E12.8491
G1 X170.421 Y197.507 E12.8616
G1 X169.309 Y197.701 E12.89258
G1 X163.662 Y198.565 E13.04933
G1 X163.046 Y198.65 E13.06639
G1 X162.672 Y198.679 E13.07669
G1 X161.586 Y198.7 E13.10649
G1 X58.061 Y198.7 E15.94718
G1 X57.38 Y198.685 E15.96587
G1 X57.02 Y198.656 E15.97578
G1 X56.172 Y198.54 E15.99926
G1 X50.162 Y197.616 E16.16611
G1 X49.522 Y197.507 E16.18393
G1 X48.99 Y197.368 E16.19902
G1 X48.551 Y197.211 E16.21181
G1 X47.794 Y196.92 E16.23406
G1 X47.147 Y196.66 E16.2532
G1 X46.64 Y196.402 E16.26881
G1 X46.192 Y196.121 E16.28332
G1 X45.865 Y195.893 E16.29426
G1 X45.436 Y195.555 E16.30924
G1 X45.119 Y195.279 E16.32077
G1 X44.716 Y194.887 E16.3362
G1 X44.525 Y194.682 E16.34389
G1 X44.257 Y194.368 E16.35522
G1 X44.103 Y194.173 E16.36204
G1 X43.647 Y193.546 E16.38331
G1 X43.436 Y193.215 E16.39408
G1 X43.144 Y192.688 E16.41061
G1 X42.957 Y192.305 E16.42231
G1 X42.749 Y191.805 E16.43717
G1 X42.614 Y191.432 E16.44805
G1 X42.459 Y190.923 E16.46265
G1 X42.363 Y190.539 E16.47351
G1 X42.258 Y190.007 E16.48839
G1 X42.201 Y189.609 E16.49942
G1 X42.15 Y189.044 E16.51499
G1 X42.135 Y188.705 E16.5243
G1 X42.14 Y188.15 E16.53953
G1 X42.163 Y187.758 E16.55031
G1 X42.224 Y187.215 E16.5653
G1 X42.281 Y186.856 E16.57527
G1 X42.401 Y186.3 E16.59088
G1 X42.463 Y186.067 E16.5975
G1 X42.58 Y185.681 E16.60856
G1 X42.675 Y185.411 E16.61642
G1 X43.016 Y184.567 E16.6414
G1 X44.049 Y182.147 E16.7136
G1 X45.044 Y179.622 E16.78807
;;retract;;
G1 F1500 E10.78807
;MESH:
G0 F2880 X52.502 Y35.601
;TYPE:WALL-INNER
G1 F1500 E16.78807
G1 F1200 X53.037 Y35.566 E16.80278
G1 X53.569 Y35.46 E16.81766
G1 X54.076 Y35.287 E16.83236
G1 X54.557 Y35.049 E16.84709
G1 X54.999 Y34.754 E16.86167
G1 X55.406 Y34.396 E16.87654
G1 X55.759 Y33.993 E16.89124
G1 X56.054 Y33.55 E16.90585
G1 X56.292 Y33.065 E16.92067
G1 X56.464 Y32.562 E16.93526
G1 X56.568 Y32.035 E16.95
G1 X56.603 Y31.5 E16.96471
G1 X56.567 Y30.959 E16.97959
G1 X56.462 Y30.433 E16.99431
G1 X56.29 Y29.931 E17.00887
G1 X56.054 Y29.45 E17.02357
G1 X55.756 Y29.004 E17.03829
G1 X55.398 Y28.597 E17.05316
G1 X54.999 Y28.246 E17.06774
G1 X54.552 Y27.947 E17.0825
G1 X54.066 Y27.71 E17.09734
G1 X53.564 Y27.538 E17.1119
G1 X53.037 Y27.433 E17.12664
G1 X52.497 Y27.399 E17.14149
G1 X51.967 Y27.434 E17.15606
G1 X51.44 Y27.538 E17.1708
G1 X50.932 Y27.712 E17.18554
G1 X50.448 Y27.951 E17.20035
G1 X50.005 Y28.246 E17.21495
G1 X49.598 Y28.605 E17.22985
G1 X49.245 Y29.008 E17.24455
G1 X48.95 Y29.45 E17.25913
G1 X48.714 Y29.931 E17.27383
G1 X48.539 Y30.443 E17.28868
G1 X48.436 Y30.965 E17.30328
G1 X48.401 Y31.5 E17.31799
G1 X48.436 Y32.035 E17.3327
G1 X48.542 Y32.567 E17.34758
G1 X48.714 Y33.071 E17.3622
G1 X48.953 Y33.554 E17.37698
G1 X49.251 Y34.001 E17.39172
G1 X49.602 Y34.401 E17.40633
G1 X50.009 Y34.757 E17.42116
G1 X50.452 Y35.052 E17.43577
G1 X50.938 Y35.291 E17.45063
G1 X51.44 Y35.462 E17.46518
G1 X51.967 Y35.566 E17.47992
G1 X52.502 Y35.601 E17.49463
G0 F2880 X52.502 Y35.2
;TYPE:WALL-OUTER
G1 F1200 X52.985 Y35.169 E17.50791
G1 X53.465 Y35.073 E17.52134
G1 X53.922 Y34.917 E17.5346
G1 X54.356 Y34.702 E17.54789
G1 X54.755 Y34.436 E17.56104
G1 X55.122 Y34.113 E17.57446
G1 X55.441 Y33.749 E17.58774
G1 X55.707 Y33.35 E17.6009
G1 X55.922 Y32.912 E17.61429
G1 X56.077 Y32.458 E17.62745
G1 X56.171 Y31.983 E17.64074
G1 X56.202 Y31.5 E17.65402
G1 X56.17 Y31.012 E17.66744
G1 X56.075 Y30.537 E17.68073
G1 X55.92 Y30.084 E17.69387
G1 X55.707 Y29.65 E17.70713
G1 X55.438 Y29.248 E17.7204
G1 X55.115 Y28.88 E17.73384
G1 X54.755 Y28.564 E17.74698
G1 X54.352 Y28.295 E17.76028
G1 X53.913 Y28.08 E17.77369
G1 X53.46 Y27.925 E17.78683
G1 X52.985 Y27.831 E17.80012
G1 X52.497 Y27.8 E17.81353
G1 X52.019 Y27.831 E17.82668
G1 X51.544 Y27.925 E17.83996
G1 X51.086 Y28.082 E17.85325
G1 X50.648 Y28.298 E17.86665
G1 X50.249 Y28.564 E17.87981
G1 X49.882 Y28.888 E17.89324
G1 X49.563 Y29.252 E17.90652
G1 X49.297 Y29.65 E17.91966
G1 X49.084 Y30.084 E17.93292
G1 X48.926 Y30.547 E17.94635
G1 X48.833 Y31.017 E17.95949
G1 X48.802 Y31.5 E17.97277
G1 X48.833 Y31.983 E17.98606
G1 X48.929 Y32.463 E17.99949
G1 X49.084 Y32.917 E18.01265
G1 X49.3 Y33.354 E18.02603
G1 X49.569 Y33.757 E18.03932
G1 X49.885 Y34.117 E18.05247
G1 X50.253 Y34.439 E18.06588
G1 X50.652 Y34.705 E18.07904
G1 X51.091 Y34.921 E18.09247
G1 X51.544 Y35.075 E18.1056
G1 X52.019 Y35.169 E18.11888
G1 X52.502 Y35.2 E18.13216
G0 F2880 X52.702 Y35.188
G0 X52.73 Y35.628
;;retract;;
G1 F1500 E12.13216
G0 F2880 X165.005 Y34.757
;TYPE:WALL-INNER
G1 F1500 E18.13216
G1 F1200 X165.448 Y35.052 E18.14677
G1 X165.929 Y35.289 E18.16148
G1 X166.443 Y35.463 E18.17637
G1 X166.968 Y35.566 E18.19105
G1 X167.498 Y35.601 E18.20563
G1 X168.033 Y35.566 E18.22034
G1 X168.565 Y35.46 E18.23522
G1 X169.072 Y35.287 E18.24992
G1 X169.548 Y35.052 E18.26449
G1 X169.999 Y34.751 E18.27937
G1 X170.402 Y34.396 E18.2941
G1 X170.752 Y33.997 E18.30867
G1 X171.05 Y33.55 E18.32341
G1 X171.288 Y33.065 E18.33823
G1 X171.461 Y32.557 E18.35296
G1 X171.565 Y32.035 E18.36756
G1 X171.599 Y31.495 E18.38241
G1 X171.564 Y30.965 E18.39698
G1 X171.458 Y30.433 E18.41187
G1 X171.286 Y29.93 E18.42646
G1 X171.047 Y29.446 E18.44127
G1 X170.752 Y29.004 E18.45585
G1 X170.394 Y28.596 E18.47074
G1 X169.991 Y28.243 E18.48544
G1 X169.548 Y27.948 E18.50005
G1 X169.067 Y27.712 E18.51475
G1 X168.555 Y27.537 E18.5296
G1 X168.033 Y27.433 E18.5442
G1 X167.492 Y27.399 E18.55908
G1 X166.958 Y27.435 E18.57376
G1 X166.436 Y27.538 E18.58836
G1 X165.924 Y27.714 E18.60322
G1 X165.448 Y27.948 E18.61777
G1 X165.001 Y28.246 E18.63251
G1 X164.594 Y28.604 E18.64739
G1 X164.244 Y29.004 E18.66197
G1 X163.946 Y29.45 E18.67669
G1 X163.708 Y29.937 E18.69156
G1 X163.535 Y30.443 E18.70624
G1 X163.432 Y30.965 E18.72084
G1 X163.397 Y31.5 E18.73555
G1 X163.43 Y32.029 E18.75009
G1 X163.538 Y32.567 E18.76515
G1 X163.71 Y33.071 E18.77976
G1 X163.946 Y33.55 E18.79441
G1 X164.247 Y34.002 E18.80931
G1 X164.603 Y34.404 E18.82405
G1 X165.005 Y34.757 E18.83873
G0 F2880 X165.249 Y34.439
;TYPE:WALL-OUTER
G1 F1200 X165.648 Y34.705 E18.85189
G1 X166.082 Y34.919 E18.86517
G1 X166.546 Y35.076 E18.87861
G1 X167.02 Y35.169 E18.89186
G1 X167.498 Y35.2 E18.905
G1 X167.981 Y35.169 E18.91828
G1 X168.461 Y35.073 E18.93172
G1 X168.918 Y34.917 E18.94497
G1 X169.348 Y34.705 E18.95812
G1 X169.755 Y34.433 E18.97155
G1 X170.118 Y34.113 E18.98483
G1 X170.434 Y33.753 E18.99798
G1 X170.703 Y33.35 E19.01127
G1 X170.918 Y32.912 E19.02466
G1 X171.074 Y32.453 E19.03796
G1 X171.167 Y31.983 E19.05111
G1 X171.198 Y31.495 E19.06453
G1 X171.167 Y31.017 E19.07767
G1 X171.071 Y30.537 E19.0911
G1 X170.916 Y30.084 E19.10424
G1 X170.7 Y29.646 E19.11764
G1 X170.434 Y29.248 E19.13078
G1 X170.111 Y28.88 E19.14421
G1 X169.747 Y28.561 E19.15749
G1 X169.348 Y28.295 E19.17065
G1 X168.914 Y28.082 E19.18392
G1 X168.451 Y27.924 E19.19734
G1 X167.981 Y27.831 E19.21049
G1 X167.493 Y27.8 E19.22391
G1 X167.01 Y27.832 E19.23719
G1 X166.54 Y27.925 E19.25033
G1 X166.078 Y28.084 E19.26374
G1 X165.648 Y28.295 E19.27688
G1 X165.245 Y28.564 E19.29018
G1 X164.878 Y28.887 E19.30359
G1 X164.562 Y29.248 E19.31676
G1 X164.293 Y29.65 E19.33003
G1 X164.078 Y30.09 E19.34347
G1 X163.922 Y30.547 E19.35672
G1 X163.829 Y31.017 E19.36987
G1 X163.798 Y31.5 E19.38315
G1 X163.828 Y31.977 E19.39626
G1 X163.925 Y32.463 E19.40986
G1 X164.08 Y32.917 E19.42302
G1 X164.293 Y33.35 E19.43626
G1 X164.565 Y33.757 E19.4497
G1 X164.886 Y34.12 E19.46299
G1 X165.249 Y34.439 E19.47625
G0 F2880 X165.415 Y34.55
G0 X165.17 Y34.915
;;retract;;
G1 F1500 E13.47625
G0 F2880 X163.397 Y188.498
;TYPE:WALL-INNER
G1 F1500 E19.47625
G1 F1200 X163.432 Y189.033 E19.49097
G1 X163.536 Y189.56 E19.5057
G1 X163.709 Y190.068 E19.52043
G1 X163.945 Y190.548 E19.53511
G1 X164.246 Y190.999 E19.54999
G1 X164.597 Y191.398 E19.56457
G1 X165.004 Y191.756 E19.57944
G1 X165.447 Y192.051 E19.59405
G1 X165.927 Y192.288 E19.60873
