;FLAVOR:Marlin
;TIME:10577
;Filament used:7.96321m
;Layer height: 0.2
;MINX:22.156
;MINY:138.721
;MINZ:0.15
;MAXX:197.277
;MAXY:181.568
;MAXZ:19.55
                          
;Creality Print GCode Generated by CXEngineDEV
;Generated Time:2022-06-30 15:03:09
;----------Machine Config--------------
;Machine Name:Creality Ender-3 Pro
;Machine Height:250
;Machine Width:220
;Machine Depth:220
;Material name:Castable
;Number of Extruders:1
;ExtruderParams[0] Nozzle Diameter1000
;----------Profile Config---------------
;Layer Height:0.2
;Wall Thickness:0.8
;Top/Bottom Thickness:1
;Out Wall Line Width:0.4
;Inner Wall Line Width:0.4
;Inital Layer Height:150
;Wall Line Count:2
;Infill Line Distance:4
;Infill Pattern:grid
;Infill Sparse Density:20
;Infill Wipe Distance:0
;Print Temperature:200
;Bed Temperature:60
;Support Enable:false
;Support Density:30
;Support Angle:1.0472
;Adhesion Type:none
;machine is belt:false
;machine belt offset:10
;machine belt offset Y:0
;Raft Base Line Spacing:1.6
;Wait Heatup Sync:true
;----------Shell Config----------------
;Outer Wall Wipe Distance:200
;Infill Before Walls:false
;Infill Overlap:0.16
;Fill Gaps Between Walls:everywhere
;Minimum Infill Area:1
;Top Surface Skin Layer:0
;Top Layers:3
;Z Seam Alignment:sharpest_corner
;Seam Corner Preference:z_seam_corner_inner
;Z Seam X:110
;Z Seam Y:110
;Horizontal Expansion:0
;Top/Bottom Pattern:zigzag
;Ironing Pattern:zigzag
;Vase Model:false
;----------Support Config----------------
;Support Type:everywhere
;Support Pattern:zigzag
;Support Infill Layer Thickness:0.2
;Minimum Support Area:5
;Enable Support Roof:false
;Support Roof Thickness:0.8
;Support Roof Pattern:lines
;Connect Support Lines:0
;Connect Support ZigZags:1
;Minimum Support X/Y Distance:0.2
;Support Line Distance:1.33
; ---------PrintSpeed & Travel----------
;Enable Print Cool:true
;Avoid Printed Parts Traveling:true
;Enable Retraction:true
;Retraction Distance:6
;Retraction Speed:100
;Retraction Prime Speed:100
;Maximum Retraction Count:100
;Minimum Extrusion Distance Window:1
;Z Hop When Retracted:false
;Z Hop Height:0.2
;Retract Before Outer Wall:true
;Print Speed:50
;Infill Speed:50

;Prime Tower Speed:50
;Travel Speed:120
;Initial Layer Speed:25
;Skirt/Brim Speed:25
;Combing Mode:off
; --------SpecialModel&Mesh Fixes--------
;Union Overlapping Volum:true
;Remove All Holes:false
;Maximum Travel Resolution:0.6
;Maximum Deviation:0.05
;Maximum Model Angle:0.872665
;IS Mold Print:false
;Make Overhang Printable:false
;Enable Coasting:false
;Coasting Volumes:0.06
;Coasting Speed:0.9
;Raft AirGap:0.25
;Layer0 ZOverLap:0.13
;---------------------End of Head--------------------------
M140 S60
M105
M104 S200
M105
M109 S200
M105
M190 S60
M82 ;absolute extrusion mode
M220 S100 ;Reset Feedrate
M221 S100 ;Reset Flowrate

G28 ;Home

G92 E0 ;Reset Extruder
G1 Z2.0 F3000 ;Move Z Axis up
G1 X10.1 Y20 Z0.28 F5000.0 ;Move to start position
G1 X10.1 Y145.0 Z0.28 F1500.0 E15 ;Draw the first line
G1 X10.4 Y145.0 Z0.28 F5000.0 ;Move to side a little
G1 X10.4 Y20 Z0.28 F1500.0 E30 ;Draw the second line
G92 E0  ;Reset Extruder
G1 E-1.0000 F1800 ;Retract a bit
G1 Z2.0 F3000 ;Move Z Axis up
G1 E0.0000 F1800 

G92 E0
G92 E0
G1 F6000 E-6

;LAYER_COUNT:98

;LAYER:0
M107
;MESH:
G0 F3600 X50.823 Y144.639 Z0.15
;TYPE:WALL-INNER
G1 F6000 E0
G1 F1500 X50.444 Y143.222 E0.04025
G1 X49.408 Y142.186 E0.08045
G1 X47.991 Y141.807 E0.1207
G1 X46.575 Y142.186 E0.16092
G1 X45.539 Y143.222 E0.20112
G1 X45.159 Y144.639 E0.24138
G1 X45.539 Y146.055 E0.28161
G1 X46.575 Y147.091 E0.32181
G1 X47.991 Y147.471 E0.36204
G1 X49.408 Y147.091 E0.4023
G1 X50.444 Y146.055 E0.4425
G1 X50.823 Y144.639 E0.48272
G0 F3600 X50.409 Y144.639
;TYPE:WALL-OUTER
G1 F1500 X50.085 Y143.429 E0.51709
G1 X49.201 Y142.545 E0.5514
G1 X47.991 Y142.221 E0.58577
G1 X46.782 Y142.545 E0.62011
G1 X45.898 Y143.429 E0.65442
G1 X45.573 Y144.639 E0.6888
G1 X45.898 Y145.848 E0.72315
G1 X46.782 Y146.732 E0.75745
G1 X47.991 Y147.057 E0.79181
G1 X49.201 Y146.732 E0.82618
G1 X50.085 Y145.848 E0.86049
G1 X50.409 Y144.639 E0.89483
G0 F3600 X50.358 Y144.446
G0 X50.783 Y144.334
;;retract;;
G1 F6000 E-5.10517
G0 F3600 X50.444 Y174.239
;TYPE:WALL-INNER
G1 F6000 E0.89483
G1 F1500 X49.408 Y173.201 E0.93507
G1 X47.991 Y172.822 E0.97532
G1 X46.575 Y173.201 E1.01555
G1 X45.539 Y174.238 E1.05577
G1 X45.159 Y175.654 E1.096
G1 X45.539 Y177.07 E1.13623
G1 X46.575 Y178.107 E1.17645
G1 X47.991 Y178.486 E1.21667
G1 X49.408 Y178.107 E1.25692
G1 X50.444 Y177.069 E1.29716
G1 X50.823 Y175.654 E1.33736
G1 X50.444 Y174.239 E1.37755
G0 F3600 X50.085 Y174.446
;TYPE:WALL-OUTER
G1 F1500 X49.201 Y173.56 E1.41189
G1 X47.991 Y173.236 E1.44627
G1 X46.782 Y173.56 E1.48061
G1 X45.898 Y174.445 E1.51493
G1 X45.573 Y175.654 E1.54929
G1 X45.898 Y176.863 E1.58364
G1 X46.782 Y177.748 E1.61796
G1 X47.991 Y178.072 E1.65231
G1 X49.201 Y177.748 E1.68668
G1 X50.085 Y176.862 E1.72102
G1 X50.409 Y175.654 E1.75534
G1 X50.085 Y174.446 E1.78966
G0 F3600 X49.944 Y174.305
G0 X50.256 Y173.996
;;retract;;
G1 F6000 E-4.21034
G0 F3600 X80.423 Y173.201
;TYPE:WALL-INNER
G1 F6000 E1.78966
G1 F1500 X79.006 Y172.822 E1.82991
G1 X77.59 Y173.201 E1.87013
G1 X76.554 Y174.239 E1.91037
G1 X76.175 Y175.654 E1.95057
G1 X76.554 Y177.069 E1.99076
G1 X77.59 Y178.107 E2.031
G1 X79.006 Y178.486 E2.07123
G1 X80.423 Y178.107 E2.11147
G1 X81.459 Y177.069 E2.15172
G1 X81.838 Y175.654 E2.19191
G1 X81.459 Y174.239 E2.23211
G1 X80.423 Y173.201 E2.27235
G0 F3600 X80.216 Y173.56
;TYPE:WALL-OUTER
G1 F1500 X79.006 Y173.236 E2.30672
G1 X77.797 Y173.56 E2.34107
G1 X76.913 Y174.446 E2.37541
G1 X76.589 Y175.654 E2.40973
G1 X76.913 Y176.862 E2.44405
G1 X77.797 Y177.748 E2.47839
G1 X79.006 Y178.072 E2.51273
G1 X80.216 Y177.748 E2.5471
G1 X81.1 Y176.862 E2.58145
G1 X81.424 Y175.654 E2.61577
G1 X81.1 Y174.446 E2.65008
G1 X80.216 Y173.56 E2.68443
G0 F3600 X80.023 Y173.509
G0 X80.137 Y173.084
;;retract;;
G1 F6000 E-3.31557
G0 F3600 X74.846 Y154.358
;TYPE:WALL-INNER
G1 F6000 E2.68443
G1 F1500 X72.763 Y151.644 E2.7783
G1 X70.049 Y149.562 E2.87216
G1 X66.888 Y148.252 E2.96605
G1 X63.496 Y147.806 E3.05993
G1 X60.105 Y148.252 E3.15378
G1 X56.943 Y149.562 E3.2477
G1 X54.23 Y151.644 E3.34153
G1 X52.147 Y154.358 E3.43541
G1 X50.837 Y157.52 E3.52933
G1 X50.391 Y160.911 E3.62317
G1 X50.837 Y164.302 E3.71702
G1 X52.147 Y167.464 E3.81094
G1 X54.23 Y170.178 E3.90482
G1 X56.943 Y172.26 E3.99865
G1 X60.105 Y173.57 E4.09257
G1 X63.496 Y174.016 E4.18642
G1 X66.888 Y173.57 E4.28029
G1 X70.049 Y172.26 E4.37419
G1 X72.763 Y170.178 E4.46805
G1 X74.846 Y167.464 E4.56192
G1 X76.155 Y164.302 E4.65583
G1 X76.601 Y160.911 E4.74968
G1 X76.155 Y157.52 E4.84352
G1 X74.846 Y154.358 E4.93743
G0 F3600 X74.497 Y154.56
;TYPE:WALL-OUTER
G1 F1500 X72.478 Y151.929 E5.02843
G1 X69.847 Y149.911 E5.11941
G1 X66.784 Y148.642 E5.21039
G1 X63.496 Y148.209 E5.30139
G1 X60.209 Y148.642 E5.39236
G1 X57.145 Y149.911 E5.48336
G1 X54.515 Y151.929 E5.57433
G1 X52.496 Y154.56 E5.66533
G1 X51.227 Y157.624 E5.75633
G1 X50.794 Y160.911 E5.8473
G1 X51.227 Y164.198 E5.93827
G1 X52.496 Y167.262 E6.02927
G1 X54.515 Y169.893 E6.12028
G1 X57.145 Y171.911 E6.21124
G1 X60.209 Y173.18 E6.30224
G1 X63.496 Y173.613 E6.39321
G1 X66.784 Y173.18 E6.48421
G1 X69.847 Y171.911 E6.57519
G1 X72.478 Y169.893 E6.66617
G1 X74.497 Y167.262 E6.75717
G1 X75.765 Y164.198 E6.84816
G1 X76.198 Y160.911 E6.93913
G1 X75.765 Y157.624 E7.03011
G1 X74.497 Y154.56 E7.1211
G0 F3600 X74.376 Y154.402
G0 X74.725 Y154.136
;;retract;;
G1 F6000 E1.1211
G0 F3600 X81.838 Y144.639
;TYPE:WALL-INNER
G1 F6000 E7.1211
G1 F1500 X81.459 Y143.222 E7.16135
G1 X80.423 Y142.186 E7.20155
G1 X79.006 Y141.807 E7.2418
G1 X77.59 Y142.186 E7.28202
G1 X76.554 Y143.222 E7.32222
G1 X76.175 Y144.639 E7.36247
G1 X76.554 Y146.055 E7.40269
G1 X77.59 Y147.091 E7.4429
G1 X79.006 Y147.471 E7.48313
G1 X80.423 Y147.091 E7.52338
G1 X81.459 Y146.055 E7.56358
G1 X81.838 Y144.639 E7.60381
G0 F3600 X81.424 Y144.639
;TYPE:WALL-OUTER
G1 F1500 X81.1 Y143.429 E7.63818
G1 X80.216 Y142.545 E7.67248
G1 X79.006 Y142.221 E7.70685
G1 X77.797 Y142.545 E7.7412
G1 X76.913 Y143.429 E7.7755
G1 X76.589 Y144.639 E7.80987
G1 X76.913 Y145.848 E7.84422
G1 X77.797 Y146.732 E7.87852
G1 X79.006 Y147.057 E7.91288
G1 X80.216 Y146.732 E7.94725
G1 X81.1 Y145.848 E7.98156
G1 X81.424 Y144.639 E8.0159
G0 F3600 X81.373 Y144.446
G0 X81.798 Y144.334
;;retract;;
G1 F6000 E2.0159
G0 F3600 X104.521 Y139.96
;TYPE:WALL-INNER
G1 F6000 E8.0159
G1 F1500 X104.521 Y144.978 E8.15359
G1 X88.71 Y144.978 E8.58744
G1 X88.71 Y181.168 E9.58048
G1 X37.993 Y181.168 E10.97214
G1 X37.993 Y144.978 E11.96518
G1 X22.556 Y144.978 E12.38876
G1 X22.556 Y139.96 E12.52645
G1 X104.521 Y139.96 E14.77554
G0 F3600 X104.921 Y139.56
;TYPE:WALL-OUTER
G1 F1500 X104.921 Y145.378 E14.93519
G1 X89.11 Y145.378 E15.36903
G1 X89.11 Y181.568 E16.36207
G1 X37.593 Y181.568 E17.77568
G1 X37.593 Y145.378 E18.76872
G1 X22.156 Y145.378 E19.1923
G1 X22.156 Y139.56 E19.35195
G1 X104.921 Y139.56 E21.62299
G0 F3600 X104.921 Y139.76
G0 X104.481 Y140
;;retract;;
G1 F6000 E15.62299
G0 F3600 X81.759 Y143.419
;TYPE:SKIN
G1 F6000 E21.62299
G1 F1500 X81.966 Y144.191 E21.64492
G1 X88.47 Y150.695 E21.89731
G1 X88.47 Y151.261 E21.91284
G1 X82.034 Y144.826 E22.16257
G1 X81.916 Y145.272 E22.17523
G1 X88.47 Y151.827 E22.42958
G1 X88.47 Y152.392 E22.44509
G1 X81.796 Y145.719 E22.70405
G1 X81.677 Y146.166 E22.71675
G1 X88.47 Y152.958 E22.98033
G1 X88.47 Y153.524 E22.99586
G1 X81.4 Y146.453 E23.27024
G1 X81.117 Y146.736 E23.28122
G1 X88.47 Y154.089 E23.56656
G1 X88.47 Y154.655 E23.58209
G1 X80.834 Y147.019 E23.87841
G1 X80.551 Y147.302 E23.88939
G1 X88.47 Y155.221 E24.19669
G1 X88.47 Y155.786 E24.21219
G1 X80.107 Y147.423 E24.53672
G1 X79.661 Y147.543 E24.54939
G1 X88.47 Y156.352 E24.89123
G1 X88.47 Y156.918 E24.90676
G1 X79.215 Y147.662 E25.26593
G1 X79.005 Y147.718 E25.27189
G1 X78.594 Y147.608 E25.28357
G1 X88.47 Y157.483 E25.66679
G1 X88.47 Y158.049 E25.68232
G1 X77.822 Y147.402 E26.0955
G0 F3600 X77.464 Y147.305
G1 F1500 X76.338 Y146.179 E26.1392
G1 X76.243 Y145.823 E26.14931
G1 X76.037 Y145.05 E26.17126
G1 X71.185 Y140.199 E26.35952
G1 X71.751 Y140.199 E26.37505
G1 X75.982 Y144.43 E26.53924
G1 X76.102 Y143.984 E26.55191
G1 X72.317 Y140.199 E26.69879
G1 X72.882 Y140.199 E26.71429
G1 X76.221 Y143.538 E26.84387
G1 X76.339 Y143.097 E26.85639
G1 X76.342 Y143.093 E26.85653
G1 X73.448 Y140.199 E26.96883
G1 X74.014 Y140.199 E26.98436
G1 X76.625 Y142.81 E27.08568
G1 X76.908 Y142.527 E27.09667
G1 X74.579 Y140.199 E27.18702
G1 X75.145 Y140.199 E27.20256
G1 X77.191 Y142.245 E27.28195
G1 X77.464 Y141.97 E27.29258
G1 X77.477 Y141.965 E27.29297
G1 X75.711 Y140.199 E27.3615
G1 X76.277 Y140.199 E27.37703
G1 X77.924 Y141.847 E27.44096
G1 X78.37 Y141.727 E27.45363
G1 X76.842 Y140.199 E27.51293
G1 X77.408 Y140.199 E27.52846
G1 X78.817 Y141.608 E27.58314
G1 X79.006 Y141.558 E27.5885
G1 X79.451 Y141.677 E27.60114
G1 X77.974 Y140.199 E27.65847
G1 X78.539 Y140.199 E27.67398
G1 X80.224 Y141.883 E27.73935
G0 F3600 X80.546 Y141.97
G1 F1500 X81.673 Y143.097 E27.78308
G1 X81.759 Y143.419 E27.79223
G1 X88.47 Y150.13 E28.05265
G1 X88.47 Y149.564 E28.06818
G1 X79.105 Y140.199 E28.43159
G1 X79.671 Y140.199 E28.44712
G1 X88.47 Y148.998 E28.78857
G1 X88.47 Y148.433 E28.80408
G1 X80.236 Y140.199 E29.1236
G1 X80.802 Y140.199 E29.13913
G1 X88.47 Y147.867 E29.43669
G1 X88.47 Y147.301 E29.45222
G1 X81.368 Y140.199 E29.72782
G1 X81.933 Y140.199 E29.74332
G1 X88.47 Y146.735 E29.99697
G1 X88.47 Y146.17 E30.01248
G1 X82.499 Y140.199 E30.24419
G1 X83.065 Y140.199 E30.25972
G1 X88.47 Y145.604 E30.46946
G1 X88.47 Y145.038 E30.48499
G1 X83.63 Y140.199 E30.67279
G1 X84.196 Y140.199 E30.68832
G1 X88.734 Y144.736 E30.8644
G1 X89.299 Y144.736 E30.8799
G1 X84.762 Y140.199 E31.05596
G1 X85.327 Y140.199 E31.07147
G1 X89.865 Y144.736 E31.24755
G1 X90.431 Y144.736 E31.26308
G1 X85.893 Y140.199 E31.43916
G1 X86.459 Y140.199 E31.45469
G1 X90.996 Y144.736 E31.63075
G1 X91.562 Y144.736 E31.64628
G1 X87.025 Y140.199 E31.82234
G1 X87.59 Y140.199 E31.83784
G1 X92.128 Y144.736 E32.01392
G1 X92.693 Y144.736 E32.02943
G1 X88.156 Y140.199 E32.20549
G1 X88.722 Y140.199 E32.22102
G1 X93.259 Y144.736 E32.39708
G1 X93.825 Y144.736 E32.41261
G1 X89.287 Y140.199 E32.58869
G1 X89.853 Y140.199 E32.60422
G1 X94.39 Y144.736 E32.78028
G1 X94.956 Y144.736 E32.79581
G1 X90.419 Y140.199 E32.97187
G1 X90.984 Y140.199 E32.98737
G1 X95.522 Y144.736 E33.16345
G1 X96.088 Y144.736 E33.17899
G1 X91.55 Y140.199 E33.35507
G1 X92.116 Y140.199 E33.3706
G1 X96.653 Y144.736 E33.54666
G1 X97.219 Y144.736 E33.56219
G1 X92.681 Y140.199 E33.73827
G1 X93.247 Y140.199 E33.7538
G1 X97.785 Y144.736 E33.92988
G1 X98.35 Y144.736 E33.94538
G1 X93.813 Y140.199 E34.12144
G1 X94.378 Y140.199 E34.13695
G1 X98.916 Y144.736 E34.31302
G1 X99.482 Y144.736 E34.32856
G1 X94.944 Y140.199 E34.50464
G1 X95.51 Y140.199 E34.52017
G1 X100.047 Y144.736 E34.69623
G1 X100.613 Y144.736 E34.71176
G1 X96.076 Y140.199 E34.88782
G1 X96.641 Y140.199 E34.90332
G1 X101.179 Y144.736 E35.0794
G1 X101.744 Y144.736 E35.0949
G1 X97.207 Y140.199 E35.27097
G1 X97.773 Y140.199 E35.2865
G1 X102.31 Y144.736 E35.46256
G1 X102.876 Y144.736 E35.47809
G1 X98.338 Y140.199 E35.65417
G1 X98.904 Y140.199 E35.6697
G1 X103.441 Y144.736 E35.84576
G1 X104.007 Y144.736 E35.86129
G1 X99.47 Y140.199 E36.03735
G1 X100.035 Y140.199 E36.05285
G1 X104.281 Y144.444 E36.2176
G1 X104.281 Y143.879 E36.2331
G1 X100.601 Y140.199 E36.37591
G1 X101.167 Y140.199 E36.39144
G1 X104.281 Y143.313 E36.51228
G1 X104.281 Y142.747 E36.52781
G1 X101.732 Y140.199 E36.62671
G1 X102.298 Y140.199 E36.64224
G1 X104.281 Y142.182 E36.71919
G1 X104.281 Y141.616 E36.73472
G1 X102.864 Y140.199 E36.78971
G1 X103.429 Y140.199 E36.80521
G1 X104.281 Y141.05 E36.83825
G1 X104.281 Y140.485 E36.85376
G1 X103.995 Y140.199 E36.86485
G1 X104.281 Y140.199 E36.8727
;;retract;;
G1 F6000 E30.8727
G0 F3600 X76.243 Y145.823
G1 F6000 E36.8727
G1 F1500 X70.62 Y140.199 E37.09093
G1 X70.054 Y140.199 E37.10646
G1 X88.47 Y158.615 E37.8211
G1 X88.47 Y159.181 E37.83663
G1 X69.488 Y140.199 E38.57323
G1 X68.923 Y140.199 E38.58874
G1 X88.47 Y159.746 E39.34727
G1 X88.47 Y160.312 E39.3628
G1 X68.357 Y140.199 E40.14329
G1 X67.791 Y140.199 E40.15882
G1 X88.47 Y160.878 E40.96128
G1 X88.47 Y161.443 E40.97679
G1 X67.226 Y140.199 E41.80117
G1 X66.66 Y140.199 E41.8167
G1 X88.47 Y162.009 E42.66305
G1 X88.47 Y162.575 E42.67858
G1 X66.094 Y140.199 E43.54689
G1 X65.528 Y140.199 E43.56242
G1 X88.47 Y163.14 E44.45268
G1 X88.47 Y163.706 E44.46821
G1 X64.963 Y140.199 E45.38041
G1 X64.397 Y140.199 E45.39594
G1 X88.47 Y164.272 E46.3301
G1 X88.47 Y164.837 E46.3456
G1 X63.831 Y140.199 E47.30171
G1 X63.266 Y140.199 E47.31722
G1 X88.47 Y165.403 E48.29527
G1 X88.47 Y165.969 E48.3108
G1 X62.7 Y140.199 E49.31082
G1 X62.134 Y140.199 E49.32635
G1 X88.47 Y166.534 E50.34831
G1 X88.47 Y167.1 E50.36384
G1 X73.242 Y151.872 E50.95477
G1 X75.055 Y154.236 E51.03652
G1 X75.066 Y154.262 E51.03729
G1 X88.47 Y167.666 E51.55744
G1 X88.47 Y168.232 E51.57297
G1 X75.465 Y155.227 E52.07764
G1 X75.865 Y156.192 E52.1063
G1 X88.47 Y168.797 E52.59544
G1 X88.47 Y169.363 E52.61097
G1 X76.264 Y157.157 E53.08463
G1 X76.388 Y157.457 E53.09354
G1 X76.447 Y157.906 E53.10597
G1 X88.47 Y169.929 E53.57253
G1 X88.47 Y170.494 E53.58803
G1 X76.532 Y158.557 E54.05127
G1 X76.618 Y159.208 E54.06929
G1 X88.47 Y171.06 E54.52921
G1 X88.47 Y171.626 E54.54474
G1 X76.704 Y159.859 E55.00135
G1 X76.789 Y160.511 E55.01939
G1 X88.47 Y172.191 E55.47266
G1 X88.47 Y172.757 E55.48819
G1 X76.817 Y161.104 E55.94039
G1 X76.751 Y161.604 E55.95423
G1 X88.47 Y173.323 E56.40899
G1 X88.47 Y173.888 E56.42449
G1 X76.685 Y162.104 E56.88179
G1 X76.619 Y162.604 E56.89563
G1 X88.47 Y174.454 E57.3555
G1 X88.47 Y175.02 E57.37103
G1 X76.554 Y163.104 E57.83343
G1 X76.488 Y163.604 E57.84727
G1 X88.47 Y175.585 E58.31222
G1 X88.47 Y176.151 E58.32775
G1 X76.423 Y164.104 E58.79524
G1 X76.389 Y164.363 E58.80241
G1 X76.309 Y164.556 E58.80814
G1 X88.47 Y176.717 E59.28005
G1 X88.47 Y177.282 E59.29556
G1 X76.143 Y164.955 E59.77391
G1 X75.977 Y165.356 E59.78582
