;FLAVOR:Marlin
;TIME:15909
;Filament used:11.0262m
;Layer height: 0.2
;MINX:54.85
;MINY:67.35
;MINZ:0.1
;MAXX:166.15
;MAXY:112.65
;MAXZ:29.3
                                 
;Creality Print GCode Generated by CXEngineDEV
;Generated Time:2022-06-30 15:03:09
;----------Machine Config--------------
;Machine Name:Creality Ender-3 Pro
;Machine Height:250
;Machine Width:220
;Machine Depth:220
;Material name:Castable
;Number of Extruders:1
;ExtruderParams[0] Nozzle Diameter1000
;----------Profile Config---------------
;Layer Height:0.2
;Wall Thickness:0.8
;Top/Bottom Thickness:0.6
;Out Wall Line Width:0.4
;Inner Wall Line Width:0.4
;Inital Layer Height:100
;Wall Line Count:2
;Infill Line Distance:4
;Infill Pattern:grid
;Infill Sparse Density:20
;Infill Wipe Distance:0
;Print Temperature:200
;Bed Temperature:60
;Support Enable:false
;Support Density:30
;Support Angle:1.0472
;Adhesion Type:brim
;machine is belt:false
;machine belt offset:10
;machine belt offset Y:0
;Raft Base Line Spacing:1.6
;Wait Heatup Sync:true
;----------Shell Config----------------
;Outer Wall Wipe Distance:200
;Infill Before Walls:false
;Infill Overlap:0.16
;Fill Gaps Between Walls:everywhere
;Minimum Infill Area:1
;Top Surface Skin Layer:0
;Top Layers:3
;Z Seam Alignment:sharpest_corner
;Seam Corner Preference:z_seam_corner_inner
;Z Seam X:110
;Z Seam Y:110
;Horizontal Expansion:0
;Top/Bottom Pattern:zigzag
;Ironing Pattern:zigzag
;Vase Model:false
;----------Support Config----------------
;Support Type:everywhere
;Support Pattern:zigzag
;Support Infill Layer Thickness:0.2
;Minimum Support Area:5
;Enable Support Roof:false
;Support Roof Thickness:0.8
;Support Roof Pattern:lines
;Connect Support Lines:0
;Connect Support ZigZags:1
;Minimum Support X/Y Distance:0.2
;Support Line Distance:1.33
; ---------PrintSpeed & Travel----------
;Enable Print Cool:true
;Avoid Printed Parts Traveling:true
;Enable Retraction:true
;Retraction Distance:6
;Retraction Speed:100
;Retraction Prime Speed:100
;Maximum Retraction Count:100
;Minimum Extrusion Distance Window:1
;Z Hop When Retracted:false
;Z Hop Height:0.2
;Retract Before Outer Wall:true
;Print Speed:50
;Infill Speed:50

;Prime Tower Speed:50
;Travel Speed:120
;Initial Layer Speed:25
;Skirt/Brim Speed:25
;Combing Mode:infill
; --------SpecialModel&Mesh Fixes--------
;Union Overlapping Volum:true
;Remove All Holes:false
;Maximum Travel Resolution:0.6
;Maximum Deviation:0.05
;Maximum Model Angle:0.872665
;IS Mold Print:false
;Make Overhang Printable:false
;Enable Coasting:false
;Coasting Volumes:0.06
;Coasting Speed:0.9
;Raft AirGap:0.25
;Layer0 ZOverLap:0.13
;---------------------End of Head--------------------------
M140 S60
M105
M104 S200
M105
M109 S200
M105
M190 S60
M82 ;absolute extrusion mode
M220 S100 ;Reset Feedrate
M221 S100 ;Reset Flowrate

G28 ;Home

G92 E0 ;Reset Extruder
G1 Z2.0 F3000 ;Move Z Axis up
G1 X10.1 Y20 Z0.28 F5000.0 ;Move to start position
G1 X10.1 Y145.0 Z0.28 F1500.0 E15 ;Draw the first line
G1 X10.4 Y145.0 Z0.28 F5000.0 ;Move to side a little
G1 X10.4 Y20 Z0.28 F1500.0 E30 ;Draw the second line
G92 E0  ;Reset Extruder
G1 E-1.0000 F1800 ;Retract a bit
G1 Z2.0 F3000 ;Move Z Axis up
G1 E0.0000 F1800 

G92 E0
G92 E0
G1 F6000 E-6

;LAYER_COUNT:150

;LAYER:0
M107
G0 F3600 X57.872 Y68.984 Z0.1
;;retract;;
G0 X159.008 Y74.492
G0 X159.02 Y104.85
G0 X158.55 Y104.85
;TYPE:SKIRT
G1 F6000 E0
G1 F1500 X158.511 Y104.969 E0.00229
G1 X158.35 Y105.05 E0.00559
G1 X62.65 Y105.05 E1.75623
G1 X62.531 Y105.011 E1.75853
G1 X62.45 Y104.85 E1.76182
G1 X62.45 Y75.15 E2.30513
G1 X62.489 Y75.031 E2.30742
G1 X62.65 Y74.95 E2.31071
G1 X158.35 Y74.95 E4.06136
G1 X158.469 Y74.989 E4.06365
G1 X158.55 Y75.15 E4.06695
G1 X158.55 Y104.85 E4.61025
G0 F3600 X158.95 Y104.85
G1 F1500 X158.797 Y105.251 E4.61811
G1 X158.624 Y105.384 E4.6221
G1 X158.35 Y105.45 E4.62725
G1 X62.65 Y105.45 E6.3779
G1 X62.249 Y105.297 E6.38575
G1 X62.116 Y105.124 E6.38974
G1 X62.05 Y104.85 E6.3949
G1 X62.05 Y75.15 E6.9382
G1 X62.203 Y74.749 E6.94605
G1 X62.376 Y74.616 E6.95005
G1 X62.65 Y74.55 E6.9552
G1 X158.35 Y74.55 E8.70585
G1 X158.751 Y74.703 E8.7137
G1 X158.884 Y74.876 E8.71769
G1 X158.95 Y75.15 E8.72285
G1 X158.95 Y104.85 E9.26615
G0 F3600 X159.35 Y104.85
G1 F1500 X159.31 Y105.129 E9.27131
G1 X159.194 Y105.386 E9.27647
G1 X159.011 Y105.601 E9.28163
G1 X158.775 Y105.755 E9.28679
G1 X158.505 Y105.838 E9.29195
G1 X158.35 Y105.85 E9.2948
G1 X62.65 Y105.85 E11.04544
G1 X62.371 Y105.81 E11.0506
G1 X62.114 Y105.694 E11.05576
G1 X61.899 Y105.511 E11.06092
G1 X61.745 Y105.275 E11.06608
G1 X61.662 Y105.005 E11.07125
G1 X61.65 Y104.85 E11.07409
G1 X61.65 Y75.15 E11.61739
G1 X61.69 Y74.871 E11.62255
G1 X61.806 Y74.614 E11.62771
G1 X61.989 Y74.399 E11.63287
G1 X62.225 Y74.245 E11.63803
G1 X62.495 Y74.162 E11.64319
G1 X62.65 Y74.15 E11.64604
G1 X158.35 Y74.15 E13.39669
G1 X158.629 Y74.19 E13.40184
G1 X158.886 Y74.306 E13.407
G1 X159.101 Y74.489 E13.41216
G1 X159.255 Y74.725 E13.41732
G1 X159.338 Y74.995 E13.42249
G1 X159.35 Y75.15 E13.42533
G1 X159.35 Y104.85 E13.96864
G0 F3600 X159.75 Y104.85
G1 F1500 X159.71 Y105.182 E13.97475
G1 X159.593 Y105.494 E13.98085
G1 X159.405 Y105.771 E13.98697
G1 X159.157 Y105.994 E13.99307
G1 X158.863 Y106.153 E13.99919
G1 X158.539 Y106.237 E14.00531
G1 X158.35 Y106.25 E14.00878
G1 X62.65 Y106.25 E15.75942
G1 X62.318 Y106.21 E15.76554
G1 X62.006 Y106.093 E15.77164
G1 X61.729 Y105.905 E15.77776
G1 X61.506 Y105.657 E15.78386
G1 X61.347 Y105.363 E15.78997
G1 X61.263 Y105.039 E15.7961
G1 X61.25 Y104.85 E15.79956
G1 X61.25 Y75.15 E16.34287
G1 X61.29 Y74.818 E16.34898
G1 X61.407 Y74.506 E16.35508
G1 X61.595 Y74.229 E16.3612
G1 X61.843 Y74.006 E16.36731
G1 X62.137 Y73.847 E16.37342
G1 X62.461 Y73.763 E16.37954
G1 X62.65 Y73.75 E16.38301
G1 X158.35 Y73.75 E18.13366
G1 X158.682 Y73.79 E18.13977
G1 X158.994 Y73.907 E18.14587
G1 X159.271 Y74.095 E18.15199
G1 X159.494 Y74.343 E18.15809
G1 X159.653 Y74.637 E18.16421
G1 X159.737 Y74.961 E18.17033
G1 X159.75 Y75.15 E18.1738
G1 X159.75 Y104.85 E18.7171
G0 F3600 X160.15 Y104.85
G1 F1500 X160.11 Y105.227 E18.72404
G1 X159.992 Y105.587 E18.73097
G1 X159.802 Y105.914 E18.73788
G1 X159.547 Y106.195 E18.74483
G1 X159.238 Y106.415 E18.75176
G1 X158.891 Y106.567 E18.75869
G1 X158.35 Y106.65 E18.76871
G1 X62.65 Y106.65 E20.51935
G1 X62.273 Y106.61 E20.52629
G1 X61.913 Y106.492 E20.53322
G1 X61.586 Y106.302 E20.54014
G1 X61.305 Y106.047 E20.54708
G1 X61.085 Y105.738 E20.55402
G1 X60.933 Y105.391 E20.56095
G1 X60.85 Y104.85 E20.57096
G1 X60.85 Y75.15 E21.11426
G1 X60.89 Y74.773 E21.1212
G1 X61.008 Y74.413 E21.12813
G1 X61.198 Y74.086 E21.13505
G1 X61.453 Y73.805 E21.14199
G1 X61.762 Y73.585 E21.14893
G1 X62.109 Y73.433 E21.15586
G1 X62.65 Y73.35 E21.16587
G1 X158.35 Y73.35 E22.91652
G1 X158.727 Y73.39 E22.92345
G1 X159.087 Y73.508 E22.93038
G1 X159.414 Y73.698 E22.9373
G1 X159.695 Y73.953 E22.94424
G1 X159.915 Y74.262 E22.95118
G1 X160.067 Y74.609 E22.95811
G1 X160.15 Y75.15 E22.96812
G1 X160.15 Y104.85 E23.51143
G0 F3600 X160.55 Y104.85
G1 F1500 X160.51 Y105.267 E23.51909
G1 X160.392 Y105.669 E23.52676
G1 X160.199 Y106.041 E23.53442
G1 X159.94 Y106.37 E23.54208
G1 X159.623 Y106.644 E23.54975
G1 X159.26 Y106.853 E23.55741
G1 X158.863 Y106.989 E23.56509
G1 X158.35 Y107.05 E23.57454
G1 X62.65 Y107.05 E25.32518
G1 X62.233 Y107.01 E25.33285
G1 X61.831 Y106.892 E25.34051
G1 X61.459 Y106.699 E25.34818
G1 X61.13 Y106.44 E25.35584
G1 X60.856 Y106.123 E25.3635
G1 X60.647 Y105.76 E25.37116
G1 X60.511 Y105.363 E25.37884
G1 X60.45 Y104.85 E25.38829
G1 X60.45 Y75.15 E25.9316
G1 X60.49 Y74.733 E25.93926
G1 X60.608 Y74.331 E25.94692
G1 X60.801 Y73.959 E25.95459
G1 X61.06 Y73.63 E25.96225
G1 X61.377 Y73.356 E25.96991
G1 X61.74 Y73.147 E25.97758
G1 X62.137 Y73.011 E25.98525
G1 X62.65 Y72.95 E25.9947
G1 X158.35 Y72.95 E27.74535
G1 X158.767 Y72.99 E27.75301
G1 X159.169 Y73.108 E27.76068
G1 X159.541 Y73.301 E27.76834
G1 X159.87 Y73.56 E27.776
G1 X160.144 Y73.877 E27.78367
G1 X160.353 Y74.24 E27.79133
G1 X160.489 Y74.637 E27.79901
G1 X160.55 Y75.15 E27.80846
G1 X160.55 Y104.85 E28.35176
G0 F3600 X160.95 Y104.85
G1 F1500 X160.91 Y105.304 E28.3601
G1 X160.792 Y105.744 E28.36843
G1 X160.598 Y106.156 E28.37676
G1 X160.335 Y106.529 E28.38511
G1 X160.012 Y106.85 E28.39344
G1 X159.637 Y107.109 E28.40178
G1 X159.223 Y107.299 E28.41011
G1 X158.782 Y107.414 E28.41845
G1 X158.35 Y107.45 E28.42638
G1 X62.65 Y107.45 E30.17703
G1 X62.196 Y107.41 E30.18536
G1 X61.756 Y107.292 E30.1937
G1 X61.344 Y107.098 E30.20203
G1 X60.971 Y106.835 E30.21038
G1 X60.65 Y106.512 E30.21871
G1 X60.391 Y106.137 E30.22704
G1 X60.201 Y105.723 E30.23538
G1 X60.086 Y105.282 E30.24371
G1 X60.05 Y104.85 E30.25164
G1 X60.05 Y75.15 E30.79495
G1 X60.09 Y74.696 E30.80329
G1 X60.208 Y74.256 E30.81162
G1 X60.402 Y73.844 E30.81995
G1 X60.665 Y73.471 E30.8283
G1 X60.988 Y73.15 E30.83663
G1 X61.363 Y72.891 E30.84497
G1 X61.777 Y72.701 E30.8533
G1 X62.218 Y72.586 E30.86164
G1 X62.65 Y72.55 E30.86957
G1 X158.35 Y72.55 E32.62021
G1 X158.804 Y72.59 E32.62855
G1 X159.244 Y72.708 E32.63688
G1 X159.656 Y72.902 E32.64521
G1 X160.029 Y73.165 E32.65356
G1 X160.35 Y73.488 E32.66189
G1 X160.609 Y73.863 E32.67023
G1 X160.799 Y74.277 E32.67856
G1 X160.914 Y74.718 E32.6869
G1 X160.95 Y75.15 E32.69483
G1 X160.95 Y104.85 E33.23813
G0 F3600 X161.35 Y104.85
G1 F1500 X161.31 Y105.338 E33.24709
G1 X161.191 Y105.813 E33.25605
G1 X160.997 Y106.262 E33.265
G1 X160.732 Y106.674 E33.27396
G1 X160.404 Y107.037 E33.28291
G1 X160.021 Y107.342 E33.29186
G1 X159.593 Y107.58 E33.30082
G1 X159.133 Y107.746 E33.30977
G1 X158.652 Y107.835 E33.31872
G1 X158.35 Y107.85 E33.32425
G1 X62.65 Y107.85 E35.07489
G1 X62.162 Y107.81 E35.08385
G1 X61.687 Y107.691 E35.09281
G1 X61.238 Y107.497 E35.10176
G1 X60.826 Y107.232 E35.11072
G1 X60.463 Y106.904 E35.11967
G1 X60.158 Y106.521 E35.12862
G1 X59.92 Y106.093 E35.13758
G1 X59.754 Y105.633 E35.14653
G1 X59.665 Y105.152 E35.15548
G1 X59.65 Y104.85 E35.16101
G1 X59.65 Y75.15 E35.70431
G1 X59.69 Y74.662 E35.71327
G1 X59.809 Y74.187 E35.72223
G1 X60.003 Y73.738 E35.73117
G1 X60.268 Y73.326 E35.74014
G1 X60.596 Y72.963 E35.74909
G1 X60.979 Y72.658 E35.75804
G1 X61.407 Y72.42 E35.767
G1 X61.867 Y72.254 E35.77595
G1 X62.348 Y72.165 E35.78489
G1 X62.65 Y72.15 E35.79043
G1 X158.35 Y72.15 E37.54107
G1 X158.838 Y72.19 E37.55003
G1 X159.313 Y72.309 E37.55899
G1 X159.762 Y72.503 E37.56794
G1 X160.174 Y72.768 E37.5769
G1 X160.537 Y73.096 E37.58585
G1 X160.842 Y73.479 E37.5948
G1 X161.08 Y73.907 E37.60376
G1 X161.246 Y74.367 E37.61271
G1 X161.335 Y74.848 E37.62166
G1 X161.35 Y75.15 E37.62719
G1 X161.35 Y104.85 E38.17049
G0 F3600 X161.75 Y104.85
G1 F1500 X161.71 Y105.37 E38.18003
G1 X161.591 Y105.877 E38.18956
G1 X161.396 Y106.36 E38.19909
G1 X161.13 Y106.808 E38.20862
G1 X160.798 Y107.21 E38.21816
G1 X160.408 Y107.556 E38.22769
G1 X159.97 Y107.839 E38.23723
G1 X159.495 Y108.052 E38.24675
G1 X158.992 Y108.189 E38.25629
G1 X158.35 Y108.25 E38.26809
G1 X62.65 Y108.25 E40.01874
G1 X62.13 Y108.21 E40.02828
G1 X61.623 Y108.091 E40.0378
G1 X61.14 Y107.896 E40.04733
G1 X60.692 Y107.63 E40.05686
G1 X60.29 Y107.298 E40.0664
G1 X59.944 Y106.908 E40.07594
G1 X59.661 Y106.47 E40.08548
G1 X59.448 Y105.995 E40.095
G1 X59.311 Y105.492 E40.10454
G1 X59.25 Y104.85 E40.11633
G1 X59.25 Y75.15 E40.65964
G1 X59.29 Y74.63 E40.66918
G1 X59.409 Y74.123 E40.6787
G1 X59.604 Y73.64 E40.68823
G1 X59.87 Y73.192 E40.69776
G1 X60.202 Y72.79 E40.7073
G1 X60.592 Y72.444 E40.71684
G1 X61.03 Y72.161 E40.72638
G1 X61.505 Y71.948 E40.7359
G1 X62.008 Y71.811 E40.74544
G1 X62.65 Y71.75 E40.75723
G1 X158.35 Y71.75 E42.50788
G1 X158.87 Y71.79 E42.51742
G1 X159.377 Y71.909 E42.52695
G1 X159.86 Y72.104 E42.53648
G1 X160.308 Y72.37 E42.54601
G1 X160.71 Y72.702 E42.55555
G1 X161.056 Y73.092 E42.56508
G1 X161.339 Y73.53 E42.57462
G1 X161.552 Y74.005 E42.58414
G1 X161.689 Y74.508 E42.59368
G1 X161.75 Y75.15 E42.60548
G1 X161.75 Y104.85 E43.14878
G0 F3600 X162.15 Y104.85
G1 F1500 X162.11 Y105.4 E43.15887
G1 X161.991 Y105.938 E43.16895
G1 X161.795 Y106.453 E43.17903
G1 X161.527 Y106.934 E43.1891
G1 X161.193 Y107.372 E43.19918
G1 X160.798 Y107.756 E43.20926
G1 X160.352 Y108.08 E43.21934
G1 X159.864 Y108.335 E43.22941
G1 X159.344 Y108.518 E43.2395
G1 X158.803 Y108.623 E43.24958
G1 X158.35 Y108.65 E43.25788
G1 X62.65 Y108.65 E45.00853
G1 X62.1 Y108.61 E45.01862
G1 X61.562 Y108.491 E45.02869
G1 X61.047 Y108.295 E45.03877
G1 X60.566 Y108.027 E45.04885
G1 X60.128 Y107.693 E45.05892
G1 X59.744 Y107.298 E45.069
G1 X59.42 Y106.852 E45.07909
G1 X59.165 Y106.364 E45.08916
G1 X58.982 Y105.844 E45.09924
G1 X58.877 Y105.303 E45.10932
G1 X58.85 Y104.85 E45.11762
G1 X58.85 Y75.15 E45.66093
G1 X58.89 Y74.6 E45.67102
G1 X59.009 Y74.062 E45.6811
G1 X59.205 Y73.547 E45.69118
G1 X59.473 Y73.066 E45.70125
G1 X59.807 Y72.628 E45.71133
G1 X60.202 Y72.244 E45.7214
G1 X60.648 Y71.92 E45.73149
G1 X61.136 Y71.665 E45.74156
G1 X61.656 Y71.482 E45.75164
G1 X62.197 Y71.377 E45.76172
G1 X62.65 Y71.35 E45.77003
G1 X158.35 Y71.35 E47.52067
G1 X158.9 Y71.39 E47.53076
G1 X159.438 Y71.509 E47.54084
G1 X159.953 Y71.705 E47.55092
G1 X160.434 Y71.973 E47.56099
G1 X160.872 Y72.307 E47.57107
G1 X161.256 Y72.702 E47.58115
G1 X161.58 Y73.148 E47.59123
G1 X161.835 Y73.636 E47.6013
G1 X162.018 Y74.156 E47.61139
G1 X162.123 Y74.697 E47.62147
G1 X162.15 Y75.15 E47.62977
G1 X162.15 Y104.85 E48.17307
G0 F3600 X162.55 Y104.85
G1 F1500 X162.51 Y105.428 E48.18367
G1 X162.391 Y105.995 E48.19427
G1 X162.195 Y106.54 E48.20487
G1 X161.926 Y107.053 E48.21546
G1 X161.589 Y107.524 E48.22606
G1 X161.19 Y107.944 E48.23665
G1 X160.737 Y108.306 E48.24726
G1 X160.239 Y108.601 E48.25785
G1 X159.705 Y108.826 E48.26845
G1 X159.145 Y108.974 E48.27905
G1 X158.35 Y109.05 E48.29366
G1 X62.65 Y109.05 E50.0443
G1 X62.072 Y109.01 E50.0549
G1 X61.505 Y108.891 E50.0655
G1 X60.96 Y108.695 E50.07609
G1 X60.447 Y108.426 E50.08669
G1 X59.976 Y108.089 E50.09729
G1 X59.556 Y107.69 E50.10788
G1 X59.194 Y107.237 E50.11849
G1 X58.899 Y106.739 E50.12908
G1 X58.674 Y106.205 E50.13968
G1 X58.526 Y105.645 E50.15027
G1 X58.45 Y104.85 E50.16488
G1 X58.45 Y75.15 E50.70819
G1 X58.49 Y74.572 E50.71879
G1 X58.609 Y74.005 E50.72939
G1 X58.805 Y73.46 E50.73998
G1 X59.074 Y72.947 E50.75058
G1 X59.411 Y72.476 E50.76117
G1 X59.81 Y72.056 E50.77177
G1 X60.263 Y71.694 E50.78238
G1 X60.761 Y71.399 E50.79296
G1 X61.295 Y71.174 E50.80356
G1 X61.855 Y71.026 E50.81416
G1 X62.65 Y70.95 E50.82877
G1 X158.35 Y70.95 E52.57942
G1 X158.928 Y70.99 E52.59002
G1 X159.495 Y71.109 E52.60061
G1 X160.04 Y71.305 E52.61121
G1 X160.553 Y71.574 E52.6218
G1 X161.024 Y71.911 E52.6324
G1 X161.444 Y72.31 E52.643
G1 X161.806 Y72.763 E52.6536
G1 X162.101 Y73.261 E52.66419
G1 X162.326 Y73.795 E52.67479
G1 X162.474 Y74.355 E52.68539
G1 X162.55 Y75.15 E52.7
G1 X162.55 Y104.85 E53.2433
G0 F3600 X162.95 Y104.85
G1 F1500 X162.91 Y105.455 E53.25439
G1 X162.791 Y106.049 E53.26548
G1 X162.595 Y106.623 E53.27657
G1 X162.324 Y107.166 E53.28767
G1 X161.985 Y107.669 E53.29877
G1 X161.583 Y108.122 E53.30985
G1 X161.125 Y108.519 E53.32094
G1 X160.618 Y108.852 E53.33203
G1 X160.072 Y109.116 E53.34313
G1 X159.496 Y109.305 E53.35422
G1 X158.9 Y109.417 E53.36531
G1 X158.35 Y109.45 E53.37539
G1 X62.65 Y109.45 E55.12604
G1 X62.045 Y109.41 E55.13713
G1 X61.451 Y109.291 E55.14821
G1 X60.877 Y109.095 E55.1593
G1 X60.334 Y108.824 E55.17041
G1 X59.831 Y108.485 E55.1815
G1 X59.378 Y108.083 E55.19258
G1 X58.981 Y107.625 E55.20367
G1 X58.648 Y107.118 E55.21477
G1 X58.384 Y106.572 E55.22586
G1 X58.195 Y105.996 E55.23695
G1 X58.083 Y105.4 E55.24804
G1 X58.05 Y104.85 E55.25812
G1 X58.05 Y75.15 E55.80143
G1 X58.09 Y74.545 E55.81252
G1 X58.209 Y73.951 E55.8236
G1 X58.405 Y73.377 E55.8347
G1 X58.676 Y72.834 E55.8458
G1 X59.015 Y72.331 E55.85689
G1 X59.417 Y71.878 E55.86797
G1 X59.875 Y71.481 E55.87906
G1 X60.382 Y71.148 E55.89016
G1 X60.928 Y70.884 E55.90125
G1 X61.504 Y70.695 E55.91234
G1 X62.1 Y70.583 E55.92343
G1 X62.65 Y70.55 E55.93351
G1 X158.35 Y70.55 E57.68416
G1 X158.955 Y70.59 E57.69525
G1 X159.549 Y70.709 E57.70633
G1 X160.123 Y70.905 E57.71743
